!!!!SEGMENT: s-uu--instr-mus-i-hs-3-10_forster-kaspar--sonata-ex-c-b-mol.krn
!!!cenid: 16xx:1674
!!!COM: Förster, Kaspar
!!!COM-rismID: pe30006147
!!!CDT: ~1616-1673/02/02
!!!CNT: German
!!!OTL: Sonata ex C b mol
!!!PDT:
!!!AGN: Secular; Sonata
!!!YEC: Copyright 2022 Narodowy Instytut Fryderyka Chopina (https://polishscores.org)
!!!YEM: License CC-BY-4.0 (https://creativecommons.org/licenses/by/4.0)
!!!SMS-siglum: S-Uu
!!!SMS-shelfmark: Instr. mus. i hs. 3:10
!!!SMS-shelfwork: W
!!!SMS-variant:
!!!SMS-altvar:
!!!NIFC-rismSourceID: 190008746
!!!NIFC-rismChildID: 190008746
!!!NIFC-islandoraID: none
!!!URL-pdf-islandora:
!!!URL-scan: https://www2.musik.uu.se/duben/presentationSource1.php?Select_Dnr=2117 @EN{Scan on Academica} @PL{Skany w zewnętrznej bibliotece cyfrowej}
!!!IIIF:
!!!ONB-nifc: UWAGA: poszczególne partie dostępne po kliknięciu w „browse part”. Informacje nt stron tytułowych w opisie na stronie lub na RISM.
!!!AIN: 1 organ 1 viole 2 violn
!!!OMD:
!!!OMD-mod: Adagio
!!!key: c
**kern	**fba	**dynam	**kern	**dynam	**kern	**dynam	**kern	**dynam
*part4	*	*	*part3	*	*part2	*	*part1	*
*staff4	*	*	*staff3	*	*staff2	*	*staff1	*
*I"[bc]	*	*	*I"[vlne]	*	*I"Violino 2.do	*	*I"Violino 1.mo	*
*mI"Basso continuo	*	*	*mI"Violone	*	*mI"Violino II	*	*mI"Violino I	*
*I'bc	*	*	*I'vlne	*	*I'vl 2	*	*I'vl 1	*
*Iorgan	*	*	*Iviole	*	*Ivioln	*	*Ivioln	*
*ICklav	*	*	*ICstr	*	*ICstr	*	*ICstr	*
*clefF4	*	*	*clefF4	*	*clefG2	*	*clefG2	*
*k[b-]	*	*	*k[b-]	*	*k[b-]	*	*k[b-]	*
*mk[b-e-a-]	*	*	*mk[b-e-a-]	*	*mk[b-e-a-]	*	*mk[b-e-a-]	*
*c:	*	*	*c:	*	*c:	*	*c:	*
*M3/4	*	*	*M3/4	*	*M3/4	*	*M3/4	*
*	*	*	*	*	*met(3)	*	*met(3)	*
=1-	=1-	=1-	=1-	=1-	=1-	=1-	=1-	=1-
!	!	!	!	!	!LO:TX:a:t=a3.:mod=	!	!	!
!LO:TX:a:t=a 3.:mod=	!	!	!LO:TX:a:t=a3.:mod=	!	!LO:TX:a:Bi:t=adagio:mod=	!	!LO:TX:a:t=a3.:mod=	!
2.C/	-	.	4r	.	4r	.	4r	.
!	!	!	!LO:TX:t=P:problem=kreska pseudotaktowa	!	!	!	!LO:TX:t=P:problem=kreska pseudotaktowa	!
.	.	.	2C/	.	2ee-\	.	2gg\	.
=2-	=2-	=2-	=2-	=2-	=2-	=2-	=2-	=2-
4C/	-	.	4C/	.	4ee-y\	.	4gg\	.
!LO:TX:t=P:problem=kreska pseudotaktowa	!	!	!	!	!	!	!	!
2F\	6	.	2F\	.	4.dd\	.	4.ff\	.
!	!	!	!	!	!LO:TX:t=P:problem=kreska pseudotaktowa	!	!LO:SIC:v:s=8ee-\	!
.	.	.	.	.	8cc\	.	8ee\	.
=3-	=3-	=3-	=3-	=3-	=3-	=3-	=3-	=3-
!	!	!	!	!	!LO:N:acc=#	!	!	!
2.G\	#	.	2G\	.	2bn/	.	2dd\	.
.	.	.	4G\	.	4b/	.	4dd\	.
=4-	=4-	=4-	=4-	=4-	=4-	=4-	=4-	=4-
!LO:TX:t=P:problem=kreska pseudotaktowa	!	!	!	!	!	!	!	!
2.A-X\	-6	.	2A-X\	.	2cc\	.	2ff\	.
!	!	!	!LO:TX:t=P:problem=kreska pseudotaktowa	!	!	!	!LO:TX:t=P:problem=kreska pseudotaktowa	!
.	#	.	4A-\	.	4cc\	.	4ff#X\	.
=5-	=5-	=5-	=5-	=5-	=5-	=5-	=5-	=5-
!	!	!	!	!	!LO:N:acc=#	!	!	!
2G\	5	.	2G\	.	2bn/	.	2gg\	.
4G\	#	.	4G\	.	4b/	.	4dd\	.
=6-	=6-	=6-	=6-	=6-	=6-	=6-	=6-	=6-
!LO:TX:t=P:problem=kreska pseudotaktowa	!	!	!LO:TX:t=P:problem=♭ above	!	!	!	!	!
2.A-X\	-6	.	2A-X\	.	2cc\	.	2ffny\	.
!	!	!	!LO:TX:t=P:problem=kreska pseudotaktowa	!	!LO:TX:t=P:problem=kreska pseudotaktowa	!	!	!
.	#	.	4A-\	.	4cc\	.	4ff#X\	.
=7-	=7-	=7-	=7-	=7-	=7-	=7-	=7-	=7-
!	!	!	!	!	!LO:N:acc=#	!	!	!
4G\	.	.	4G\	.	2.bn/	.	4gg\	.
2GG/	.	.	2GG/	.	.	.	4.gg\	.
.	.	.	.	.	.	.	8dd\	.
=8-	=8-	=8-	=8-	=8-	=8-	=8-	=8-	=8-
!	!	!	!	!	!	!	!LO:TX:t=P:problem=kreska pseudotaktowa	!
4C/	.	.	4C/	.	4r	.	2.ee-X\	.
!LO:MO:mod=*null:null	!	!	!LO:MO:mod=*null:null	!	!	!	!	!
*clefC3	*	*	*clefC3	*	*	*	*	*
!	!	!	!LO:TX:t=P:problem=kreska pseudotaktowa	!	!	!	!	!
2c,</	.	.	2c/	.	4.cc\	.	.	.
!	!	!	!	!	!LO:TX:t=P:problem=kreska pseudotaktowa	!	!	!
.	.	.	.	.	8a/	.	.	.
=9-	=9-	=9-	=9-	=9-	=9-	=9-	=9-	=9-
4G/	.	.	4G/	.	2.b-y/	.	2.dd\	.
4.g\	.	.	4.g\	.	.	.	.	.
!LO:TX:t=P:problem=kreska pseudotaktowa	!	!	!	!	!	!	!	!
8d\	.	.	8d\	.	.	.	.	.
=10-	=10-	=10-	=10-	=10-	=10-	=10-	=10-	=10-
!	!	!	!	!	!LO:TX:t=P:problem=kreska pseudotaktowa	!	!	!
4e-\	6	.	4e-\	.	2.g/	.	2.cc\	.
4.d\	.	.	4.d\	.	.	.	.	.
8c,\	.	.	8c/	.	.	.	.	.
=11-	=11-	=11-	=11-	=11-	=11-	=11-	=11-	=11-
*	*	*	*2\right	*	*	*	*	*
2.d\	.	.	2.d\	.	2f#X/	.	4.cc\	.
.	.	.	.	.	.	.	8dd\	.
.	.	.	.	.	4g/	.	4b-/	.
!LO:MO:mod=*null:null	!	!	!LO:MO:mod=*null:null	!	!	!	!	!
*clefF4	*	*	*clefF4	*	*	*	*	*
=12-	=12-	=12-	=12-	=12-	=12-	=12-	=12-	=12-
4D/	.	.	4D/	.	4g/	.	4b-/	.
!	!	!	!LO:TX:t=P:problem=kreska pseudotaktowa	!	!	!	!	!
2DD,</	5 4	.	2DD/	.	4.g/	.	4.a/	.
!	!	!	!	!	!LO:TX:t=P:problem=kreska pseudotaktowa	!	!LO:TX:t=P:problem=kreska pseudotaktowa	!
.	x 3	.	.	.	8f#X/	.	8a/	.
=13-	=13-	=13-	=13-	=13-	=13-	=13-	=13-	=13-
!	!	!	!	!	!	!	!LO:N:acc=#	!
4GG/	.	.	4GG/	.	4g/	.	2bn/	.
!LO:N:acc=#	!	!	!LO:N:acc=#	!	!	!	!	!
2BBn/	6	.	2BBn/	.	4.g/	.	.	.
.	.	.	.	.	.	.	4r	.
.	.	.	.	.	8d/	.	.	.
=14-	=14-	=14-	=14-	=14-	=14-	=14-	=14-	=14-
4C/	-	.	4C/	.	4e-X/	.	4r	.
!LO:TX:t=P:problem=kreska pseudotaktowa	!	!	!LO:TX:t=P:problem=kreska pseudotaktowa	!	!LO:N:acc=#	!	!	!
2D/	x -5	.	2D/	.	4.Bn/	.	4.ffny\	.
!	!	!	!	!	!LO:TX:t=P:problem=kreska pseudotaktowa	!	!LO:TX:t=P:problem=kreska pseudotaktowa	!
.	# 6	.	.	.	8B/	.	8dd\	.
=15-	=15-	=15-	=15-	=15-	=15-	=15-	=15-	=15-
4C/	-	.	4C/	.	4c/	.	4ee-X\	.
*	*	*	*2\left	*	*	*	*	*
2A-X\	6	.	2A-X\	.	4.c/	.	4r	.
.	.	.	.	.	.	.	4r	.
.	.	.	.	.	8fny/	.	.	.
!	!	!	!	!	!LO:LB:g=original	!	!	!
=16-	=16-	=16-	=16-	=16-	=16-	=16-	=16-	=16-
!	!	!	!LO:TX:t=P:problem=kreska pseudotaktowa	!	!LO:TX:t=P:problem=kreska pseudotaktowa	!	!	!
2.G\	# 6	.	2.G\	.	2.eny/	.	4r	.
.	.	.	.	.	.	.	4.bb-X\	.
!	!	!	!	!	!	!	!LO:TX:t=P:problem=kreska pseudotaktowa	!
.	.	.	.	.	.	.	8gg\	.
*custos:F	*	*	*	*	*	*	*custos:aa	*
!LO:LB:g=original	!	!	!	!	!	!	!LO:LB:g=original	!
=17-	=17-	=17-	=17-	=17-	=17-	=17-	=17-	=17-
2.F\	-	.	2.F\	.	4f/	.	2.aa-X\	.
.	.	.	.	.	4.cc\	.	.	.
.	.	.	.	.	8dd\	.	.	.
!	!	!	!LO:LB:g=original	!	!	!	!	!
=18-	=18-	=18-	=18-	=18-	=18-	=18-	=18-	=18-
2C/	.	.	2C/	.	2eeny\	.	2gg\	.
2BB-y/	6 -5	.	2BB-/	.	2ff\	.	2gg\	.
=19-	=19-	=19-	=19-	=19-	=19-	=19-	=19-	=19-
.	.	.	.	.	.	.	.	.
2C/	4	.	4.C/	.	4.ff\	.	4.gg\	.
!	!	!	!	!	!	!	!LO:TX:t=P:problem=kreska pseudotaktowa	!
.	3	.	8C/	.	8ee\	.	8gg\	.
=20-	=20-	=20-	=20-	=20-	=20-	=20-	=20-	=20-
4FF/	.	.	4FF/	.	4ff\	.	4ff\	.
!LO:TX:t=P:problem=kreska pseudotaktowa	!	!	!	!	!	!	!	!
2FF#X/	6	.	2FF#X/	.	4.dd\	.	4r	.
!	!	!	!	!	!	!	!LO:TX:t=P:problem=kreska pseudotaktowa	!
.	.	.	.	.	.	.	4r	.
!	!	!	!	!	!LO:TX:t=P:problem=kreska pseudotaktowa	!	!	!
.	.	.	.	.	8a/	.	.	.
=21-	=21-	=21-	=21-	=21-	=21-	=21-	=21-	=21-
!	!	!	!	!	!LO:N:acc=#	!	!	!
2.GG/	#	.	2.GG/	.	2.bn/	.	4r	.
.	.	.	.	.	.	.	4.gg\	.
.	.	.	.	.	.	.	8dd\	.
=22-	=22-	=22-	=22-	=22-	=22-	=22-	=22-	=22-
2C/	-	.	4C/	.	2cc\	.	2ee-X\	.
.	.	.	4c\	.	.	.	.	.
!	!	!	!	!	!	!	!LO:TX:t=P:problem=kreska pseudotaktowa	!
!LO:TX:t=P:problem=kreska pseudotaktowa	!	!	!LO:TX:t=P:problem=kreska pseudotaktowa	!	!	!	!LO:N:acc=#	!
4G\	#6	.	4G\	.	4b-y/	.	4een\	.
=23-	=23-	=23-	=23-	=23-	=23-	=23-	=23-	=23-
2.F\	-	.	2.F\	.	4a-X/	.	4ff\	.
.	.	.	.	.	4.f/	.	2aa-X\	.
!	!	!	!	!	!LO:TX:t=P:problem=kreska pseudotaktowa	!	!	!
.	.	.	.	.	8c/	.	.	.
=24-	=24-	=24-	=24-	=24-	=24-	=24-	=24-	=24-
4F\	7 5	.	4F\	.	4e-X/	.	4cc\	.
4.G\	4	.	4.G\	.	4.d/	.	4.cc\	.
!	!	!	!	!	!	!	!LO:TX:t=P:problem=kreska pseudotaktowa	!
!LO:TX:t=P:problem=kreska pseudotaktowa	!	!	!LO:TX:t=P:problem=kreska pseudotaktowa	!	!	!	!LO:N:acc=#	!
8GG/	3	.	8GG/	.	8d/	.	8bn/	.
=25-	=25-	=25-	=25-	=25-	=25-	=25-	=25-	=25-
4C/	-	.	4C/	.	4e-X/	.	4cc\	.
!	!	!	!	!	!	!LO:DY:a:t=piano	!	!
2FF#X/	6 1	.	2FF#X/	.	4.dd\	p	4r	.
.	.	.	.	.	.	.	4r	.
!	!	!	!	!	!LO:TX:t=P:problem=kreska pseudotaktowa	!	!	!
.	.	.	.	.	8any/	.	.	.
=26-	=26-	=26-	=26-	=26-	=26-	=26-	=26-	=26-
!	!	!LO:MO:mod=!LO&colon;DY&colon;ed=brack	!	!	!	!	!	!
!	!	!null	!	!	!	!	!	!
!LO:TX:t=P:problem=kreska pseudotaktowa	!	!LO:MO:null:mod=p	!	!LO:DY:a:t=piano	!LO:N:acc=#	!	!	!
2.GG/	#	.	2.GG/	p	2.bn/	.	4r	.
!	!	!	!	!	!	!	!	!LO:MO:mod=!LO&colon;DY&colon;ed=brack
!	!	!	!	!	!	!	!	!null
!	!	!	!	!	!	!	!	!LO:MO:null:mod=p
.	.	.	.	.	.	.	4.gg\	.
!	!	!	!	!	!	!	!LO:TX:t=P:problem=kreska pseudotaktowa	!
.	.	.	.	.	.	.	8dd\	.
=27-	=27-	=27-	=27-	=27-	=27-	=27-	=27-	=27-
2C/	-	.	4C/	.	2cc\	.	2ee-X\	.
.	.	.	4c\	.	.	.	.	.
!	!	!	!	!	!LO:TX:t=P:problem=kreska pseudotaktowa	!	!LO:N:acc=#	!
4G\	# 6	.	4G\	.	4b-y/	.	4een\	.
=28-	=28-	=28-	=28-	=28-	=28-	=28-	=28-	=28-
!LO:TX:t=P:problem=kreska pseudotaktowa	!	!	!LO:TX:t=P:problem=kreska pseudotaktowa	!	!	!	!	!
2.F\	-	.	2.F\	.	4a-X/	.	4ff\	.
!	!	!	!	!	!	!	!LO:TX:t=P:problem=kreska pseudotaktowa	!
.	.	.	.	.	4.f/	.	2aa-X\	.
.	.	.	.	.	8c/	.	.	.
*	*	*	*	*	*custos:e	*	*	*
!	!	!	!	!	!LO:LB:g=original	!	!	!
=29-	=29-	=29-	=29-	=29-	=29-	=29-	=29-	=29-
4F\	7 5	.	4F\	.	4e-X/	.	4cc\	.
4.G\	4	.	4.G\	.	4.d/	.	4.cc\	.
!	!	!	!	!	!	!	!LO:N:acc=#	!
8GG/	3	.	8GG/	.	8d/	.	8bn/	.
=30-	=30-	=30-	=30-	=30-	=30-	=30-	=30-	=30-
2C/	.	.	2C/	.	2e-X/	.	2cc\	.
4r	.	.	4r	.	4r	.	4r	.
!	!	!	!	!	!	!	!LO:LB:g=original	!
=31||	=31||	=31||	=31||	=31||	=31||	=31||	=31||	=31||
4C/	-	.	4C/	.	4cc\	.	4ee-X\	.
2D/	-6	.	4.D/	.	4.b-/	.	4.dd\	.
.	.	.	8D/	.	8a-X/	.	8cc\	.
=32-	=32-	=32-	=32-	=32-	=32-	=32-	=32-	=32-
!LO:TX:t=P:problem=kreska pseudotaktowa	!	!	!LO:TX:t=P:problem=kreska pseudotaktowa	!	!	!	!	!
2.E-X\	.	.	2.E-X\	.	4.g/	.	4.b-/	.
.	.	.	.	.	8f/	.	8a-X/	.
!	!	!	!	!	!LO:TX:t=P:problem=kreska pseudotaktowa	!	!	!
.	.	.	.	.	4e-X/	.	4g/	.
=33-	=33-	=33-	=33-	=33-	=33-	=33-	=33-	=33-
4E-X\	.	.	4E-y\	.	4ee-X\	.	4gg\	.
2F\	6 -3	.	4.F\	.	4.dd\	.	2aa-X\	.
.	.	.	8F\	.	8cc\	.	.	.
*custos:G	*	*	*custos:G	*	*	*	*	*
!LO:LB:g=original	!	!	!LO:LB:g=original	!	!	!	!	!
=34-	=34-	=34-	=34-	=34-	=34-	=34-	=34-	=34-
!	!	!	!	!	!LO:N:acc=#	!	!LO:TX:t=P:problem=kreska pseudotaktowa	!
2G\	4	.	2G\	.	4.bn/	.	2.gg\	.
.	.	.	.	.	8cc\	.	.	.
!LO:TX:t=P:problem=kreska pseudotaktowa	!	!	!	!	!LO:TX:t=P:problem=kreska pseudotaktowa	!	!	!
4GG/	#	.	4GG/	.	4dd\	.	.	.
=35-	=35-	=35-	=35-	=35-	=35-	=35-	=35-	=35-
2.AA-X/	7	.	2.AA-X/	.	4.cc\	.	4gg\	.
.	.	.	.	.	.	.	4.ff\	.
.	.	.	.	.	8cc\	.	.	.
.	6	.	.	.	8dd\L	.	.	.
.	.	.	.	.	8cc\J	.	8ff\	.
=36-	=36-	=36-	=36-	=36-	=36-	=36-	=36-	=36-
!LO:TX:t=P:problem=kreska pseudotaktowa	!	!	!	!	!LO:N:acc=#	!	!	!
2.GG/	#	.	4.GG/	.	4.bn/	.	4.gg\	.
.	.	.	8GG/	.	8b/	.	8gg\	.
!	!	!	!	!	!LO:TX:t=P:problem=kreska pseudotaktowa	!	!LO:TX:t=P:problem=kreska pseudotaktowa	!
.	.	.	4GG/	.	4b/	.	4gg\	.
=37-	=37-	=37-	=37-	=37-	=37-	=37-	=37-	=37-
4GG/	.	.	4GG/	.	4gg\	.	4bb-X\	.
2C/	7 3	.	4.C/	.	4.eeny\	.	4.bb-\	.
.	.	.	8C/	.	8ee\	.	8bb-\	.
=38-	=38-	=38-	=38-	=38-	=38-	=38-	=38-	=38-
!LO:TX:t=P:problem=kreska pseudotaktowa	!	!	!	!	!	!	!	!
2.F\	9	.	4.F\	.	4.ff\	.	4.aa-X\	.
.	8	.	8F\	.	8ff\	.	8aa-\	.
!	!	!	!	!	!LO:TX:t=P:problem=kreska pseudotaktowa	!	!	!
!	!	!	!LO:TX:t=P:problem=kreska pseudotaktowa	!	!	!	!LO:TX:t=P:problem=kreska pseudotaktowa	!
.	.	.	4F\	.	4ff\	.	4aa-\	.
*	*	*	*	*	*custos:ff	*	*	*
!	!	!	!	!	!LO:LB:g=original	!	!	!
=39-	=39-	=39-	=39-	=39-	=39-	=39-	=39-	=39-
!LO:N:acc=#	!	!	!LO:N:acc=#	!	!	!	!	!
2.BBn/	6 -5	.	4BBn/	.	4ff\	.	4gg\	.
.	.	.	4.BB/	.	4.dd\	.	4.gg\	.
.	.	.	8BB/	.	8dd\	.	8ff\	.
=40-	=40-	=40-	=40-	=40-	=40-	=40-	=40-	=40-
!LO:TX:t=P:problem=kreska pseudotaktowa	!	!	!	!	!	!	!	!
2.C/	-9	.	4.C/	.	4.dd\	.	4.ee-X\	.
.	8	.	8C/	.	8cc\	.	8ee-\	.
!	!	!	!LO:TX:t=P:problem=kreska pseudotaktowa	!	!LO:TX:t=P:problem=kreska pseudotaktowa	!	!LO:TX:t=P:problem=kreska pseudotaktowa	!
.	.	.	4C/	.	4cc\	.	4ee-\	.
=41-	=41-	=41-	=41-	=41-	=41-	=41-	=41-	=41-
2.FF#X/	6 -5	.	4FF#X/	.	4cc\	.	4dd\	.
.	.	.	4.FF#/	.	4.any/	.	4.dd\	.
.	.	.	8FF#/	.	8a/	.	8cc\	.
=42-	=42-	=42-	=42-	=42-	=42-	=42-	=42-	=42-
4GG/	9	.	4GG/	.	4a/	.	2b-/	.
4E-X\	5 3	.	4E-X\	.	4.g/	.	.	.
!LO:TX:t=P:problem=kreska pseudotaktowa	!	!	!	!	!	!	!LO:TX:t=P:problem=kreska pseudotaktowa	!
4D/	.	.	4D/	.	.	.	4b-/	.
!	!	!	!	!	!LO:TX:t=P:problem=kreska pseudotaktowa	!	!	!
.	.	.	.	.	8g/	.	.	.
=43-	=43-	=43-	=43-	=43-	=43-	=43-	=43-	=43-
4C/	.	.	4C/	.	4g/	.	2any/	.
2D/	4	.	4.D/	.	4.g/	.	.	.
.	.	.	.	.	.	.	4a/	.
.	3	.	8DD/	.	8f#X/	.	.	.
*	*	*	*	*	*	*	*custos:b	*
!	!	!	!	!	!	!	!LO:LB:g=original	!
=44-	=44-	=44-	=44-	=44-	=44-	=44-	=44-	=44-
2GG/	.	.	2GG/	.	4g/	.	4b-/	.
.	.	.	.	.	4gg\	.	4.bb-\	.
!LO:TX:t=P:problem=kreska pseudotaktowa	!	!	!	!	!LO:TX:t=P:problem=kreska pseudotaktowa	!	!	!
4C/	7 #3	.	4C/	.	4ee\	.	.	.
!	!	!	!	!	!	!	!LO:TX:t=P:problem=kreska pseudotaktowa	!
.	.	.	.	.	.	.	8bb-\	.
=45-	=45-	=45-	=45-	=45-	=45-	=45-	=45-	=45-
2.FFny/	-	.	4.FFny/	.	4.ff\	.	4.aa-X\	.
.	.	.	8FF/	.	8ff\	.	8aa-\	.
!	!	!	!	!	!	!	!LO:TX:t=P:problem=kreska pseudotaktowa	!
.	.	.	4FF/	.	4ff\	.	4aa-\	.
*	*	*	*custos:BB	*	*	*	*	*
!	!	!	!LO:LB:g=original	!	!	!	!	!
=46-	=46-	=46-	=46-	=46-	=46-	=46-	=46-	=46-
!LO:TX:t=P:problem=kreska pseudotaktowa	!	!	!	!	!	!	!	!
2.BB-y/	7 3	.	4BB-y/	.	4dd\	.	4aa-y\	.
.	.	.	4.BB-/	.	4.dd\	.	4.aa-\	.
!	!	!	!	!	!LO:TX:t=P:problem=kreska pseudotaktowa	!	!LO:TX:t=P:problem=kreska pseudotaktowa	!
.	.	.	8BB-/	.	8dd\	.	8gg\	.
=47-	=47-	=47-	=47-	=47-	=47-	=47-	=47-	=47-
2.E-X\	.	.	4.E-X\	.	4.ee-X\	.	4.gg\	.
.	.	.	8E-\	.	8ee-\	.	8gg\	.
!	!	!	!	!	!LO:TX:t=P:problem=kreska pseudotaktowa	!	!	!
.	.	.	4E-\	.	4ee-\	.	4gg\	.
=48-	=48-	=48-	=48-	=48-	=48-	=48-	=48-	=48-
4E-X\	.	.	4E-X\	.	2.r	.	4g/	.
4F\	.	.	4F\	.	.	.	4a/	.
!	!	!	!	!	!	!	!LO:N:acc=#	!
!	!	!	!	!	!	!	!LO:TX:t=P:problem=kreska pseudotaktowa	!
!LO:TX:t=P:problem=kreska pseudotaktowa	!	!	!	!	!	!	!LO:TX:t=P:problem=# above	!
4G\	.	.	4G\	.	.	.	4bn/	.
=49-	=49-	=49-	=49-	=49-	=49-	=49-	=49-	=49-
4A-X\	.	.	4A-X\	.	4c/	.	4cc\	.
2G\	.	.	2G\	.	4d/	.	2b-y/	.
.	.	.	.	.	4eny/	.	.	.
*	*	*	*	*	*custos:f	*	*	*
!	!	!	!	!	!LO:LB:g=original	!	!	!
=50-	=50-	=50-	=50-	=50-	=50-	=50-	=50-	=50-
!LO:TX:t=P:problem=kreska pseudotaktowa	!	!	!	!	!	!	!	!
2.F\	-	.	2.F\	.	4fny/	.	4a-X/	.
.	.	.	.	.	4d/	.	4f/	.
!	!	!	!	!	!LO:TX:t=P:problem=kreska pseudotaktowa	!	!LO:TX:t=P:problem=kreska pseudotaktowa	!
.	.	.	.	.	4c/	.	4e-X/	.
=51-	=51-	=51-	=51-	=51-	=51-	=51-	=51-	=51-
4G\	4	.	4G\	.	4c/	.	2d/	.
2GG/	3	.	4.GG/	.	4.c/	.	.	.
.	.	.	.	.	.	.	4d/	.
!	!	!	!	!	!LO:N:acc=#	!	!	!
.	.	.	8GG/	.	8Bn/	.	.	.
*custos:C	*	*	*	*	*	*	*	*
!LO:LB:g=original	!	!	!	!	!	!	!	!
=52-	=52-	=52-	=52-	=52-	=52-	=52-	=52-	=52-
4C/	.	.	4C/	.	8e/L	.	4e-X/	.
!	!	!	!	!	!LO:SIC:s=8g	!	!	!
.	.	.	.	.	8g/J	.	.	.
!	!	!	!	!	!LO:SIC:s=8cc	!	!	!
!	!	!	!	!	!LO:TX:t=P:problem=mixed beam	!	!	!
4.C/	.	.	4.C/	.	8cc\L	.	4r	.
!	!	!	!	!	!LO:SIC:s=8c	!	!	!
.	.	.	.	.	8c/J	.	.	.
!	!	!	!	!	!LO:SIC:s=8d	!	!LO:TX:t=P:problem=kreska pseudotaktowa	!
.	.	.	.	.	8d/L	.	4r	.
!LO:TX:t=P:problem=kreska pseudotaktowa	!	!	!	!	!LO:TX:t=P:problem=kreska pseudotaktowa	!	!	!
8BB-/	.	.	8BB-,</	.	8e/J	.	.	.
=53-	=53-	=53-	=53-	=53-	=53-	=53-	=53-	=53-
!LO:TX:t=P:problem=mixed beam	!	!	!LO:TX:t=P:problem=mixed beam	!	!	!	!	!
8AAny/L	6	.	8AAny/L	.	4f/	.	8r	.
!	!	!	!	!	!	!	!LO:TX:t=P:problem=mixed beam	!
8Any\J	.	.	8Any\J	.	.	.	8cc\L	.
4F\	-	.	4F\	.	4r	.	8ff\	.
.	.	.	.	.	.	.	8f/	.
4E-X\	.	.	4E-X\	.	4r	.	8g/	.
.	.	.	.	.	.	.	8any/J	.
=54-	=54-	=54-	=54-	=54-	=54-	=54-	=54-	=54-
!	!	!	!LO:TX:t=P:problem=mixed beam	!	!	!	!	!
4D/	.	.	8D\L	.	4dd\	.	4b-/	.
.	.	.	8F\	.	.	.	.	.
!LO:TX:t=P:problem=kreska pseudotaktowa	!	!	!	!	!	!	!	!
2BB-/	.	.	8B-\	.	4.dd\	.	4.b-/	.
.	.	.	8BB-/	.	.	.	.	.
.	.	.	8C/	.	.	.	.	.
!	!	!	!LO:TX:t=P:problem=kreska pseudotaktowa	!	!LO:TX:t=P:problem=kreska pseudotaktowa	!	!LO:TX:t=P:problem=kreska pseudotaktowa	!
.	.	.	8D/J	.	8cc\	.	8a/	.
=55-	=55-	=55-	=55-	=55-	=55-	=55-	=55-	=55-
2E-X\	5	.	2E-X\	.	2b-y/	.	8g/L	.
!	!	!	!	!	!	!	!LO:SIC:s=8b-	!
.	.	.	.	.	.	.	8b-/J	.
!	!	!	!	!	!	!	!LO:SIC:s=8ee-	!
!	!	!	!	!	!	!	!LO:TX:t=P:problem=mixed beam	!
.	.	.	.	.	.	.	8ee-X\L	.
.	.	.	.	.	.	.	8g/	.
!LO:N:acc=#	!	!	!LO:N:acc=#	!	!	!	!	!
4En\	6 -5	.	4En\	.	[4cc\	.	8a/	.
.	.	.	.	.	.	.	8b-/J	.
=56-	=56-	=56-	=56-	=56-	=56-	=56-	=56-	=56-
4F\	.	.	4F\	.	4cc\]	.	8a\L	.
.	.	.	.	.	.	.	8cc\J	.
!LO:TX:t=P:problem=mixed beam	!	!	!LO:TX:t=P:problem=mixed beam	!	!	!	!	!
8D\L	6	.	8D\L	.	4.b-/	.	8ff\L	.
8E-X\	.	.	8E-X\	.	.	.	16ee-X\L	.
.	.	.	.	.	.	.	16dd\JJ	.
8F\	4	.	8F\	.	.	.	8.cc\L	.
!LO:TX:t=P:problem=kreska pseudotaktowa	!	!	!	!	!LO:TX:t=P:problem=kreska pseudotaktowa	!	!	!
8FF/J	3	.	8FF/J	.	8a/	.	.	.
.	.	.	.	.	.	.	16cc\Jk	.
!	!	!	!LO:LB:g=original	!	!	!	!LO:LB:g=original	!
=57-	=57-	=57-	=57-	=57-	=57-	=57-	=57-	=57-
!	!	!	!LO:TX:t=P:problem=mixed beam	!	!	!	!	!
2.BB-/	.	.	8BB-/L	.	4b-/	.	4dd\	.
.	.	.	8F\	.	.	.	.	.
.	.	.	8B-/	.	4.b-/	.	4.dd\	.
.	.	.	8BB-/	.	.	.	.	.
.	.	.	8C/	.	.	.	.	.
!	!	!	!	!	!LO:TX:t=P:problem=kreska pseudotaktowa	!	!LO:TX:t=P:problem=kreska pseudotaktowa	!
.	.	.	8D\J	.	8a-X/	.	8cc\	.
=58-	=58-	=58-	=58-	=58-	=58-	=58-	=58-	=58-
4E-X\	.	.	4E-X\	.	8g/L	.	8b-\L	.
.	.	.	.	.	16any/L	.	16cc\L	.
.	.	.	.	.	16b-/JJ	.	16dd\JJ	.
4C/	.	.	4C/	.	8cc\L	.	8eeny\L	.
.	.	.	.	.	8g\J	.	8b-\J	.
!LO:TX:t=P:problem=kreska pseudotaktowa	!	!	!LO:TX:t=P:problem=kreska pseudotaktowa	!	!	!	!	!
4D/	.	.	4D/	.	8.g/L	.	8.a/L	.
!	!	!	!	!	!	!	!LO:TX:t=P:problem=kreska pseudotaktowa	!
.	.	.	.	.	16f#X/Jk	.	16a/Jk	.
=59-	=59-	=59-	=59-	=59-	=59-	=59-	=59-	=59-
!	!	!	!	!	!LO:TX:t=P:problem=mixed beam	!	!	!
4G\	.	.	4G\	.	8g/L	.	2b-/	.
.	.	.	.	.	8dd\	.	.	.
4.G\	.	.	4.G\	.	8gg\	.	.	.
.	.	.	.	.	8g/	.	.	.
.	.	.	.	.	8a/	.	4r	.
!	!	!	!	!	!LO:N:acc=#	!	!	!
!	!	!	!	!	!LO:TX:b:t=P:problem=# below	!	!	!
8F\	.	.	8F\	.	8bn/J	.	.	.
!	!	!	!	!	!LO:LB:g=original	!	!	!
=60-	=60-	=60-	=60-	=60-	=60-	=60-	=60-	=60-
2Eny\	6	.	2Eny\	.	4cc\	.	8r	.
.	.	.	.	.	.	.	8gg\L	.
.	.	.	.	.	4r	.	8ccc\	.
.	.	.	.	.	.	.	8cc\	.
!	!	!	!	!	!LO:TX:t=P:problem=kreska pseudotaktowa	!	!	!
4C/	.	.	4C/	.	4r	.	8dd\	.
.	.	.	.	.	.	.	8ee\J	.
=61-	=61-	=61-	=61-	=61-	=61-	=61-	=61-	=61-
2.AA/	6	.	8r	.	4aa\	.	4ff\	.
.	.	.	8C/L	.	.	.	.	.
.	.	.	8F/	.	4.aa\	.	4.ff\	.
.	.	.	8FF/	.	.	.	.	.
.	.	.	8GG/	.	.	.	.	.
!	!	!	!	!	!	!	!LO:TX:t=P:problem=kreska pseudotaktowa	!
.	.	.	8AA/J	.	8gg\	.	8ee-X\	.
=62-	=62-	=62-	=62-	=62-	=62-	=62-	=62-	=62-
4BB-/	.	.	4BB-/	.	8ff\L	.	8dd\L	.
.	.	.	.	.	8dd\J	.	8ff\	.
4GG/	-	.	4GG/	.	4.dd\	.	8bb-X\	.
.	.	.	.	.	.	.	8eeny\J	.
!LO:TX:t=P:problem=kreska pseudotaktowa	!	!	!LO:TX:t=P:problem=kreska pseudotaktowa	!	!	!	!	!
4AA/	4	.	4AA/	.	.	.	8.ee\L	.
!	!	!	!	!	!LO:TX:t=P:problem=kreska pseudotaktowa	!	!	!
.	3	.	.	.	8cc#X\	.	.	.
!	!	!	!	!	!	!	!LO:TX:t=P:problem=kreska pseudotaktowa	!
.	.	.	.	.	.	.	16ee\Jk	.
=63-	=63-	=63-	=63-	=63-	=63-	=63-	=63-	=63-
!	!	!	!	!	!LO:TX:t=P:problem=mixed beam	!	!	!
4D/	.	.	4D/	.	8dd\L	.	4ff\	.
.	.	.	.	.	8a\	.	.	.
4.D/	.	.	4.D/	.	8dd\	.	4r	.
.	.	.	.	.	8d/	.	.	.
.	.	.	.	.	8e/	.	4r	.
!	!	!	!	!	!LO:TX:t=P:problem=kreska pseudotaktowa	!	!	!
8C/	.	.	8C/	.	8f#X/J	.	.	.
=64-	=64-	=64-	=64-	=64-	=64-	=64-	=64-	=64-
!LO:N:acc=#	!	!	!LO:N:acc=#	!	!	!	!	!
2BBn/	6	.	2BBn/	.	4.g/	.	8r	.
!	!	!	!	!	!	!	!LO:TX:t=P:problem=mixed beam	!
.	.	.	.	.	.	.	8dd\L	.
.	.	.	.	.	.	.	8gg\	.
.	.	.	.	.	8dd\	.	8g/	.
!LO:TX:t=P:problem=kreska pseudotaktowa	!	!	!	!	!LO:TX:t=P:problem=kreska pseudotaktowa	!	!	!
4GG/	.	.	4GG/	.	4dd\	.	8a/	.
!	!	!	!	!	!	!	!LO:TX:t=P:problem=kreska pseudotaktowa	!
!	!	!	!	!	!	!	!LO:N:acc=#	!
.	.	.	.	.	.	.	8bn/J	.
*custos:EE	*	*	*	*	*	*	*	*
!LO:LB:g=original	!	!	!	!	!	!	!	!
=65-	=65-	=65-	=65-	=65-	=65-	=65-	=65-	=65-
4EE/	6	.	4EE/	.	8eeny\L	.	4cc\	.
.	.	.	.	.	8gg\	.	.	.
4FF/	6	.	4FF/	.	8aa\	.	4.cc\	.
.	.	.	.	.	8dd\J	.	.	.
!	!	!	!LO:TX:t=P:problem=kreska pseudotaktowa	!	!	!	!	!
4GG/	4	.	4GG/	.	8.dd\L	.	.	.
!	!	!	!	!	!	!	!LO:TX:t=P:problem=kreska pseudotaktowa	!
!	!	!	!	!	!	!	!LO:N:acc=#	!
.	3	.	.	.	.	.	8bn/	.
.	.	.	.	.	16dd\Jk	.	.	.
=66-	=66-	=66-	=66-	=66-	=66-	=66-	=66-	=66-
4C/	.	.	4C/	.	4ee\	.	8cc/L	.
!	!	!	!	!	!	!	!LO:SIC:s=8g	!
.	.	.	.	.	.	.	8g/J	.
!	!	!	!	!	!	!	!LO:SIC:s=8cc	!
!	!	!	!	!	!	!	!LO:TX:t=P:problem=mixed beam	!
4.C/	.	.	4.C/	.	4r	.	8cc\L	.
.	.	.	.	.	.	.	8c/	.
!	!	!	!	!	!LO:TX:t=P:problem=kreska pseudotaktowa	!	!	!
.	.	.	.	.	4r	.	8d/	.
!LO:TX:t=P:problem=kreska pseudotaktowa	!	!	!	!	!	!	!	!
8BB-y/	.	.	8BB-y/	.	.	.	8eny/J	.
=67-	=67-	=67-	=67-	=67-	=67-	=67-	=67-	=67-
!LO:TX:t=P:problem=mixed beam	!	!	!LO:TX:t=P:problem=mixed beam	!	!	!	!	!
8AA/L	.	.	8AA/L	.	8r	.	4f/	.
!	!	!	!	!	!LO:TX:t=P:problem=mixed beam	!	!	!
8A\J	.	.	8A\J	.	8ccny\L	.	.	.
4F\	.	.	4F\	.	8ff\	.	4r	.
.	.	.	.	.	8fny/	.	.	.
4E-X\	.	.	4E-X\	.	8g/	.	4r	.
!	!	!	!	!	!LO:TX:t=P:problem=kreska pseudotaktowa	!	!	!
.	.	.	.	.	8a/J	.	.	.
*	*	*	*custos:D	*	*	*	*	*
!	!	!	!LO:LB:g=original	!	!	!	!	!
=68-	=68-	=68-	=68-	=68-	=68-	=68-	=68-	=68-
!	!	!	!LO:TX:t=P:problem=mixed beam	!	!	!	!	!
4D/	.	.	8D\L	.	4b-y/	.	4dd\	.
.	.	.	8F\	.	.	.	.	.
!LO:TX:t=P:problem=kreska pseudotaktowa	!	!	!	!	!	!	!	!
2BB-/	.	.	8B-\	.	4.b-/	.	4.dd\	.
.	.	.	8BB-/	.	.	.	.	.
.	.	.	8C/	.	.	.	.	.
!	!	!	!LO:TX:t=P:problem=kreska pseudotaktowa	!	!	!	!	!
.	.	.	8D/J	.	8a/	.	8cc\	.
*	*	*	*	*	*custos:g	*	*	*
!	!	!	!	!	!LO:LB:g=original	!	!LO:LB:g=original	!
=69-	=69-	=69-	=69-	=69-	=69-	=69-	=69-	=69-
2.E-X\	.	.	2.E-X\	.	8g/L	.	2b-/	.
!	!	!	!	!	!LO:SIC:s=8b-	!	!	!
.	.	.	.	.	8b-/J	.	.	.
!	!	!	!	!	!LO:SIC:s=8ee-	!	!	!
!	!	!	!	!	!LO:TX:t=P:problem=mixed beam	!	!	!
.	.	.	.	.	8ee-X\L	.	.	.
.	.	.	.	.	8g/	.	.	.
.	.	.	.	.	8a/	.	[4cc\	.
.	.	.	.	.	8b-/J	.	.	.
=70-	=70-	=70-	=70-	=70-	=70-	=70-	=70-	=70-
4F\	.	.	4F\	.	8a/L	.	4cc\]	.
.	.	.	.	.	8cc/J	.	.	.
!LO:TX:t=P:problem=mixed beam	!	!	!LO:TX:t=P:problem=mixed beam	!	!	!	!	!
8D\L	6	.	8D\L	.	8ff\L	.	4.b-/	.
8E-X\	.	.	8Eny\	.	16ee-X\L	.	.	.
.	.	.	.	.	16dd\JJ	.	.	.
8F\	4	.	8F\	.	8.cc\L	.	.	.
!LO:TX:t=P:problem=kreska pseudotaktowa	!	!	!LO:TX:t=P:problem=kreska pseudotaktowa	!	!	!	!LO:TX:t=P:problem=kreska pseudotaktowa	!
8FF/J	3	.	8FF/J	.	.	.	8a/	.
!	!	!	!	!	!LO:TX:t=P:problem=kreska pseudotaktowa	!	!	!
.	.	.	.	.	16cc\Jk	.	.	.
=71-	=71-	=71-	=71-	=71-	=71-	=71-	=71-	=71-
4BB-/	.	.	4BB-/	.	4dd\	.	4b-/	.
4B-\	.	.	4B-\	.	4dd\	.	2ff\	.
4A\	6	.	4A\	.	4cc\	.	.	.
=72-	=72-	=72-	=72-	=72-	=72-	=72-	=72-	=72-
4B-\	.	.	4B-\	.	4dd\	.	2ff\	.
!LO:TX:t=P:problem=kreska pseudotaktowa	!	!	!	!	!	!	!	!
2A\	6	.	4A\	.	4cc\	.	.	.
!	!	!	!LO:TX:t=P:problem=kreska pseudotaktowa	!	!LO:TX:t=P:problem=kreska pseudotaktowa	!	!LO:TX:t=P:problem=kreska pseudotaktowa	!
.	.	.	4AA/	.	4r	.	4r	.
=73-	=73-	=73-	=73-	=73-	=73-	=73-	=73-	=73-
2G\	-6	.	4GG/	.	4r	.	4r	.
.	.	.	4G\	.	4b-/	.	4ee-X\	.
!LO:TX:t=P:problem=kreska pseudotaktowa	!	!	!	!	!	!	!	!
4F\	6	.	4F\	.	4a/	.	4dd\	.
=74-	=74-	=74-	=74-	=74-	=74-	=74-	=74-	=74-
4G\	-6	.	4G\	.	4b-/	.	4ee-X\	.
2F\	6	.	4F\	.	4a/	.	4dd\	.
!	!	!	!LO:TX:t=P:problem=kreska pseudotaktowa	!	!LO:TX:t=P:problem=kreska pseudotaktowa	!	!LO:TX:t=P:problem=kreska pseudotaktowa	!
.	.	.	4FF/	.	4r	.	4r	.
=75-	=75-	=75-	=75-	=75-	=75-	=75-	=75-	=75-
2E-X\	-6	.	4EE-X/	.	4r	.	4r	.
.	.	.	4E-X\	.	4g/	.	4cc\	.
!	!	!	!	!	!	!	!LO:N:acc=#	!
4D/	#6	.	4D/	.	4f/	.	4bn/	.
=76-	=76-	=76-	=76-	=76-	=76-	=76-	=76-	=76-
4E-X\	6	.	4E-X\	.	4g/	.	4cc\	.
!LO:TX:t=P:problem=kreska pseudotaktowa	!	!	!	!	!	!	!LO:N:acc=#	!
2D/	#6	.	4D/	.	4f/	.	4bn/	.
!	!	!	!LO:TX:t=P:problem=kreska pseudotaktowa	!	!LO:TX:t=P:problem=kreska pseudotaktowa	!	!LO:TX:t=P:problem=kreska pseudotaktowa	!
.	.	.	4D/	.	4r	.	4r	.
=77-	=77-	=77-	=77-	=77-	=77-	=77-	=77-	=77-
4C/	#	.	4C/	.	4e/	.	[2.cc\	.
4D/	#	.	4DD/	.	4f#X/	.	.	.
4E-X\	.	.	4EE-X/	.	4g/	.	.	.
=78-	=78-	=78-	=78-	=78-	=78-	=78-	=78-	=78-
!LO:TX:t=P:problem=kreska pseudotaktowa	!	!	!	!	!	!	!	!
2.D/	4	.	2DD/	.	2g/	.	4cc\]	.
.	.	.	.	.	.	.	4.a/	.
!	!	!	!LO:TX:t=P:problem=kreska pseudotaktowa	!	!LO:TX:t=P:problem=kreska pseudotaktowa	!	!	!
.	3	.	4DD/	.	4f#X/	.	.	.
!	!	!	!	!	!	!	!LO:TX:t=P:problem=kreska pseudotaktowa	!
.	.	.	.	.	.	.	8a/	.
*custos:GG	*	*	*	*	*	*	*	*
!LO:LB:g=original	!	!	!	!	!	!	!	!
=79-	=79-	=79-	=79-	=79-	=79-	=79-	=79-	=79-
4GG/	-	.	4GG/	.	4g/	.	4b-/	.
4c\	-6r	.	4c\	.	4e-X/	.	4a-X/	.
4B-\	6	.	4B-\	.	4d/	.	4g/	.
=80-	=80-	=80-	=80-	=80-	=80-	=80-	=80-	=80-
4c\	-6r	.	4c\	.	4e-X/	.	4a-X/	.
!LO:TX:t=P:problem=kreska pseudotaktowa	!	!	!	!	!	!	!	!
2B-\	6	.	4B-\	.	4d/	.	4g/	.
!	!	!	!LO:TX:t=P:problem=kreska pseudotaktowa	!	!LO:TX:t=P:problem=kreska pseudotaktowa	!	!LO:TX:t=P:problem=kreska pseudotaktowa	!
.	.	.	4BB-/	.	4r	.	4r	.
!	!	!	!	!	!LO:LB:g=original	!	!	!
=81-	=81-	=81-	=81-	=81-	=81-	=81-	=81-	=81-
2A-X\	6	.	4AA-X/	.	4r	.	4r	.
.	.	.	4A-X\	.	4c/	.	4f/	.
4G\	6	.	4G\	.	4B-y/	.	4e/	.
=82-	=82-	=82-	=82-	=82-	=82-	=82-	=82-	=82-
4A-X\	6	.	4A-X\	.	4c/	.	4f/	.
!LO:TX:t=P:problem=kreska pseudotaktowa	!	!	!	!	!	!	!	!
2G\	#6	.	4G\	.	4B-/	.	4e/	.
!	!	!	!	!	!LO:TX:t=P:problem=kreska pseudotaktowa	!	!LO:TX:t=P:problem=kreska pseudotaktowa	!
.	.	.	4GG/	.	4r	.	4r	.
!	!	!	!LO:LB:g=original	!	!	!	!	!
=83-	=83-	=83-	=83-	=83-	=83-	=83-	=83-	=83-
!	!	!	!	!	!LO:SIC:s=4A-	!	!	!
4F\	.	.	4FF/	.	4c/	.	[2.f/	.
!	!	!	!	!	!LO:SIC:s=4B	!	!	!
4G\	.	.	4GG/	.	4d#X/	.	.	.
!	!	!	!	!	!LO:SIC:s=4c	!	!	!
4A-X\	.	.	4AA-X/	.	4eny/	.	.	.
=84-	=84-	=84-	=84-	=84-	=84-	=84-	=84-	=84-
!LO:TX:t=P:problem=kreska pseudotaktowa	!	!	!	!	!LO:SIC:s=2c	!	!	!
2.G\	4	.	2GG/	.	2e/	.	4f/]	.
.	.	.	.	.	.	.	4.d/	.
!	!	!	!	!	!LO:SIC:s=4B	!	!	!
!	!	!	!LO:TX:t=P:problem=kreska pseudotaktowa	!	!LO:TX:t=P:problem=kreska pseudotaktowa	!	!	!
.	3	.	4GG/	.	4d#X/	.	.	.
.	.	.	.	.	.	.	8d/	.
!	!	!	!	!	!	!	!LO:LB:g=original	!
=85-	=85-	=85-	=85-	=85-	=85-	=85-	=85-	=85-
!	!	!	!	!LO:MO:mod=!LO&colon;DY&colon;ed=brack	!	!	!	!LO:MO:mod=!LO&colon;DY&colon;ed=brack
!	!	!	!	!null	!	!	!	!null
!	!	!LO:DY:t=piano	!	!LO:MO:null:mod=p	!	!LO:DY:a:t=piano	!	!LO:MO:null:mod=p
4C/	.	p	4C/	.	4c/	p	4e-X/	.
4c\	-6	.	4c\	.	4e-X/	.	4a-X/	.
4B-\	.	.	4B-\	.	4dny/	.	4g/	.
=86-	=86-	=86-	=86-	=86-	=86-	=86-	=86-	=86-
4c\	-6	.	4c\	.	4e-X/	.	4a-X/	.
!LO:TX:t=P:problem=kreska pseudotaktowa	!	!	!	!	!	!	!	!
2B-\	6	.	4B-\	.	4d/	.	4g/	.
!	!	!	!LO:TX:t=P:problem=kreska pseudotaktowa	!	!LO:TX:t=P:problem=kreska pseudotaktowa	!	!LO:TX:t=P:problem=kreska pseudotaktowa	!
.	.	.	4BB-/	.	4r	.	4r	.
=87-	=87-	=87-	=87-	=87-	=87-	=87-	=87-	=87-
2A-X\	6	.	4AA-X/	.	4r	.	4r	.
.	.	.	4A-X\	.	4c/	.	4f/	.
4G\	#6	.	4G\	.	4B-/	.	4eny/	.
=88-	=88-	=88-	=88-	=88-	=88-	=88-	=88-	=88-
4A-X\	6	.	4A-X\	.	4c/	.	4f/	.
!LO:TX:t=P:problem=kreska pseudotaktowa	!	!	!	!	!	!	!	!
2G\	6	.	4G\	.	4B-/	.	4e/	.
!	!	!	!LO:TX:t=P:problem=kreska pseudotaktowa	!	!LO:TX:t=P:problem=kreska pseudotaktowa	!	!LO:TX:t=P:problem=kreska pseudotaktowa	!
.	.	.	4GG/	.	4r	.	4r	.
=89-	=89-	=89-	=89-	=89-	=89-	=89-	=89-	=89-
!	!	!	!	!	!LO:SIC:v:s=4A-/	!	!	!
4F\	-	.	4FF/	.	4A/	.	[2.f/	.
!	!	!	!	!	!LO:N:acc=#	!	!	!
4G\	#	.	4GG/	.	4Bn/	.	.	.
4A-X\	.	.	4AA-X/	.	4c/	.	.	.
=90-	=90-	=90-	=90-	=90-	=90-	=90-	=90-	=90-
2.G\	4	.	2GG/	.	2c/	.	4f/]	.
.	.	.	.	.	.	.	4.d/	.
!	!	!	!	!	!LO:N:acc=#	!	!	!
.	3	.	4GG/	.	4Bn/	.	.	.
.	.	.	.	.	.	.	8d/	.
=91-	=91-	=91-	=91-	=91-	=91-	=91-	=91-	=91-
!	!	!	!	!	!LO:MO:mod=2c	!	!	!
2C/	.	.	2C/	.	2.c/	.	2e-X/	.
!	!	!	!	!	!LO:MO:null:mod=4r	!	!	!
4r	.	.	4r	.	.	.	4r	.
!	!	!	!	!	!LO:LB:g=original	!	!	!
=92||	=92||	=92||	=92||	=92||	=92||	=92||	=92||	=92||
*M3/4	*	*	*	*	*	*	*M3/4	*
*met(3)	*	*	*	*	*	*	*met(3)	*
!	!	!	!LO:MO:mod=!LO&colon;TX&colon;a&colon;B&colon;t=TACET	!	!LO:MO:mod=!LO&colon;TX&colon;a&colon;B&colon;t=TACET	!	!	!
!LO:TX:a:i:t=Solo violino:mod=	!	!	!LO:TX:a:i:t=Aria\nsolo\ntacet	!	!LO:TX:a:i:t=Aria solo\ntacet	!	!LO:TX:a:i:t=solo.:mod=Solo	!
4C/	-	.	2.ryy	.	2.ryy	.	4cc\	.
!LO:N:acc=#	!	!	!	!	!	!	!	!
!LO:TX:b:t=P:problem=# below	!	!	!	!	!	!	!	!
2BBn/	6	.	.	.	.	.	4ff\	.
!	!	!	!	!	!	!	!LO:TX:t=P:problem=kreska pseudotaktowa	!
.	.	.	.	.	.	.	4dd\	.
=93-	=93-	=93-	=93-	=93-	=93-	=93-	=93-	=93-
2.C/	-	.	2.ryy	.	2.ryy	.	4.ee-X\	.
.	.	.	.	.	.	.	8dd\	.
!	!	!	!	!	!	!	!LO:TX:t=P:problem=kreska pseudotaktowa	!
.	.	.	.	.	.	.	4cc\	.
*custos:C	*	*	*	*	*	*	*	*
!LO:LB:g=original	!	!	!	!	!	!	!	!
=94-	=94-	=94-	=94-	=94-	=94-	=94-	=94-	=94-
4C/	-	.	2.ryy	.	2.ryy	.	4ee-X\	.
2D/	-6	.	.	.	.	.	4.b-/	.
.	.	.	.	.	.	.	8b-/	.
=95-	=95-	=95-	=95-	=95-	=95-	=95-	=95-	=95-
!LO:TX:t=P:problem=kreska pseudotaktowa	!	!	!	!	!	!	!	!
2.E-X\	.	.	2.ryy	.	2.ryy	.	4.b-/	.
.	.	.	.	.	.	.	8a/	.
!	!	!	!	!	!	!	!LO:TX:t=P:problem=kreska pseudotaktowa	!
.	.	.	.	.	.	.	4g/	.
=96-	=96-	=96-	=96-	=96-	=96-	=96-	=96-	=96-
4G\	.	.	2.ryy	.	2.ryy	.	4bb-X\	.
2A-X\	6	.	.	.	.	.	4.ff\	.
.	.	.	.	.	.	.	8ff\	.
=97-	=97-	=97-	=97-	=97-	=97-	=97-	=97-	=97-
4B-\	.	.	2.ryy	.	2.ryy	.	4ff\	.
!LO:N:acc=#	!	!	!	!	!	!	!	!
!LO:TX:t=P:problem=kreska pseudotaktowa	!	!	!	!	!	!	!	!
2Bn\	6	.	.	.	.	.	4.gg\	.
!	!	!	!	!	!	!	!LO:TX:t=P:problem=kreska pseudotaktowa	!
.	.	.	.	.	.	.	8dd\	.
*	*	*	*	*	*	*	*custos:ee	*
!	!	!	!	!	!	!	!LO:LB:g=original	!
=98-	=98-	=98-	=98-	=98-	=98-	=98-	=98-	=98-
4c\	-	.	2.ryy	.	2.ryy	.	4ee-X\	.
!	!	!	!	!	!	!	!LO:N:acc=#	!
2G\	#	.	.	.	.	.	4.bn/	.
.	.	.	.	.	.	.	8b/	.
=99-	=99-	=99-	=99-	=99-	=99-	=99-	=99-	=99-
!LO:TX:t=P:problem=kreska pseudotaktowa	!	!	!	!	!	!	!	!
2.A-X\	# -6	.	2.ryy	.	2.ryy	.	4cc\	.
.	x 5	.	.	.	.	.	4.ff\	.
!	!	!	!	!	!	!	!LO:TX:t=P:problem=kreska pseudotaktowa	!
.	.	.	.	.	.	.	8ff#X\	.
=100-	=100-	=100-	=100-	=100-	=100-	=100-	=100-	=100-
4G\	.	.	2.ryy	.	2.ryy	.	2.gg\	.
8GG/L	#	.	.	.	.	.	.	.
8AA/J	.	.	.	.	.	.	.	.
!LO:N:acc=#	!	!	!	!	!	!	!	!
4BBn/	6	.	.	.	.	.	.	.
=101-	=101-	=101-	=101-	=101-	=101-	=101-	=101-	=101-
4C/	-	.	2.ryy	.	2.ryy	.	16cc\LL	.
.	.	.	.	.	.	.	16ee-X\	.
.	.	.	.	.	.	.	16dd\	.
.	.	.	.	.	.	.	16cc\JJ	.
!LO:TX:t=P:problem=kreska pseudotaktowa	!	!	!	!	!	!	!	!
!LO:N:acc=#	!	!	!	!	!	!	!	!
2BBn/	6	.	.	.	.	.	16gg\LL	.
.	.	.	.	.	.	.	16dd\	.
!	!	!	!	!	!	!	!LO:TX:t=P:problem=# above	!
!	!	!	!	!	!	!	!LO:N:acc=#	!
.	.	.	.	.	.	.	16bn\	.
.	.	.	.	.	.	.	16g\JJ	.
.	.	.	.	.	.	.	16dd\LL	.
.	.	.	.	.	.	.	16ffny\	.
.	.	.	.	.	.	.	16ee-X\	.
!	!	!	!	!	!	!	!LO:TX:t=P:problem=kreska pseudotaktowa	!
.	.	.	.	.	.	.	16dd\JJ	.
=102-	=102-	=102-	=102-	=102-	=102-	=102-	=102-	=102-
!	!	!	!	!	!	!	!LO:SIC:v:s=16ee-LL	!
2C/	-	.	2.ryy	.	2.ryy	.	16eeny\LL	.
.	.	.	.	.	.	.	16dd\	.
.	.	.	.	.	.	.	16cc\	.
!	!	!	!	!	!	!	!LO:TX:t=P:problem=# above	!
!	!	!	!	!	!	!	!LO:N:acc=#	!
.	.	.	.	.	.	.	16bn\JJ	.
.	.	.	.	.	.	.	16cc\LL	.
.	.	.	.	.	.	.	16ccc\	.
.	.	.	.	.	.	.	16bb-\	.
.	.	.	.	.	.	.	16aa-X\JJ	.
4D/	- 6	.	.	.	.	.	16bb-\LL	.
.	.	.	.	.	.	.	16ff\	.
.	.	.	.	.	.	.	16gg\	.
!	!	!	!	!	!	!	!LO:TX:t=P:problem=kreska pseudotaktowa	!
.	.	.	.	.	.	.	16aa-X\JJ	.
=103-	=103-	=103-	=103-	=103-	=103-	=103-	=103-	=103-
!LO:SIC:v:s=2.E-	!	!	!	!	!	!	!	!
!LO:TX:t=P:problem=kreska pseudotaktowa	!	!	!	!	!	!	!	!
2.Eny\	.	.	2.ryy	.	2.ryy	.	16gg\LL	.
.	.	.	.	.	.	.	16ff\	.
!	!	!	!	!	!	!	!LO:TX:t=P:problem=♭ above	!
.	.	.	.	.	.	.	16ee-X\	.
.	.	.	.	.	.	.	16dd\JJ	.
.	.	.	.	.	.	.	16ee-\LL	.
.	.	.	.	.	.	.	16b-\	.
.	.	.	.	.	.	.	16cc\	.
.	.	.	.	.	.	.	16dd\JJ	.
.	.	.	.	.	.	.	16ee-\LL	.
.	.	.	.	.	.	.	16bb-X\	.
.	.	.	.	.	.	.	16aa-X\	.
!	!	!	!	!	!	!	!LO:TX:t=P:problem=kreska pseudotaktowa	!
.	.	.	.	.	.	.	16gg\JJ	.
=104-	=104-	=104-	=104-	=104-	=104-	=104-	=104-	=104-
4F\	-	.	2.ryy	.	2.ryy	.	16aa-X\LL	.
.	.	.	.	.	.	.	16ff\	.
.	.	.	.	.	.	.	16gg\	.
.	.	.	.	.	.	.	16aa-\JJ	.
2G\	-5r #	.	.	.	.	.	16gg\LL	.
.	.	.	.	.	.	.	16ff\	.
.	.	.	.	.	.	.	16ee-X\	.
.	.	.	.	.	.	.	16dd\JJ	.
.	.	.	.	.	.	.	16ee-X\LL	.
.	.	.	.	.	.	.	16dd\	.
.	.	.	.	.	.	.	16cc\	.
!	!	!	!	!	!	!	!LO:N:acc=#	!
!	!	!	!	!	!	!	!LO:TX:t=P:problem=kreska pseudotaktowa	!
!	!	!	!	!	!	!	!LO:TX:t=P:problem=# above	!
.	.	.	.	.	.	.	16bn\JJ	.
!	!	!	!	!	!	!	!LO:LB:g=original	!
=105-	=105-	=105-	=105-	=105-	=105-	=105-	=105-	=105-
!LO:TX:t=P:problem=kreska pseudotaktowa	!	!	!	!	!	!	!	!
2.A-X\	6	.	2.ryy	.	2.ryy	.	16cc\LL	.
.	.	.	.	.	.	.	16b-\	.
.	.	.	.	.	.	.	16a-X\	.
.	.	.	.	.	.	.	16g\JJ	.
.	.	.	.	.	.	.	16a-X/LL	.
.	7	.	.	.	.	.	16g/	.
.	6	.	.	.	.	.	16f/	.
.	.	.	.	.	.	.	16e-X/JJ	.
.	.	.	.	.	.	.	16d/LL	.
.	.	.	.	.	.	.	16e-X/	.
.	.	.	.	.	.	.	16c/	.
!	!	!	!	!	!	!	!LO:TX:t=P:problem=kreska pseudotaktowa	!
.	.	.	.	.	.	.	16d/JJ	.
=106-	=106-	=106-	=106-	=106-	=106-	=106-	=106-	=106-
!	!	!	!	!	!	!	!LO:N:acc=#	!
2.G\	#	.	2.ryy	.	2.ryy	.	16Bn/LL	.
.	.	.	.	.	.	.	16A/	.
.	.	.	.	.	.	.	16B/	.
.	.	.	.	.	.	.	16c/JJ	.
.	.	.	.	.	.	.	16d/LL	.
!	!	!	!	!	!	!	!LO:N:acc=#	!
.	.	.	.	.	.	.	16Bn/	.
.	.	.	.	.	.	.	16c/	.
.	.	.	.	.	.	.	16d/JJ	.
.	.	.	.	.	.	.	16c/LL	.
.	.	.	.	.	.	.	16g/	.
.	.	.	.	.	.	.	16d/	.
!	!	!	!	!	!	!	!LO:TX:t=P:problem=kreska pseudotaktowa	!
.	.	.	.	.	.	.	16f/JJ	.
=107-	=107-	=107-	=107-	=107-	=107-	=107-	=107-	=107-
2C/	-	.	2.ryy	.	2.ryy	.	16e-X/LL	.
.	.	.	.	.	.	.	16d/	.
.	.	.	.	.	.	.	16e-/	.
.	.	.	.	.	.	.	16f/JJ	.
.	.	.	.	.	.	.	16e-X/LL	.
.	.	.	.	.	.	.	16f/	.
.	.	.	.	.	.	.	16d/	.
.	.	.	.	.	.	.	16e-X/JJ	.
4F\	.	.	.	.	.	.	16c/LL	.
.	.	.	.	.	.	.	16f/	.
.	.	.	.	.	.	.	16e-X/	.
!	!	!	!	!	!	!	!LO:TX:t=P:problem=kreska pseudotaktowa	!
.	.	.	.	.	.	.	16f/JJ	.
=108-	=108-	=108-	=108-	=108-	=108-	=108-	=108-	=108-
!LO:TX:t=P:problem=kreska pseudotaktowa	!	!	!	!	!	!	!	!
2.BB-y/	.	.	2.ryy	.	2.ryy	.	16d/LL	.
.	.	.	.	.	.	.	16c/	.
.	.	.	.	.	.	.	16d/	.
!	!	!	!	!	!	!	!LO:TX:t=P:problem=♭ above	!
.	.	.	.	.	.	.	16e-X/JJ	.
.	.	.	.	.	.	.	16d/LL	.
.	.	.	.	.	.	.	16f/	.
.	.	.	.	.	.	.	16g/	.
!	!	!	!	!	!	!	!LO:SIC:v:s=16a-JJ	!
.	.	.	.	.	.	.	16any/JJ	.
.	.	.	.	.	.	.	16b-/LL	.
.	.	.	.	.	.	.	16f/	.
.	.	.	.	.	.	.	16g/	.
!	!	!	!	!	!	!	!LO:TX:t=P:problem=kreska pseudotaktowa	!
.	.	.	.	.	.	.	16a-X/JJ	.
=109-	=109-	=109-	=109-	=109-	=109-	=109-	=109-	=109-
4E-X\	.	.	2.ryy	.	2.ryy	.	16g/LL	.
!	!	!	!	!	!	!	!LO:SIC:v:s=16a-	!
.	.	.	.	.	.	.	16any/	.
.	.	.	.	.	.	.	16b-/	.
.	.	.	.	.	.	.	16cc/JJ	.
2D/	# 6	.	.	.	.	.	16dd\LL	.
.	.	.	.	.	.	.	16ee-X\	.
.	.	.	.	.	.	.	16ff\	.
.	.	.	.	.	.	.	16gg\JJ	.
!	!	!	!	!	!	!	!LO:N:acc=#	!
.	.	.	.	.	.	.	16bn\LL	.
.	.	.	.	.	.	.	16ff\	.
.	.	.	.	.	.	.	16ee-X\	.
.	.	.	.	.	.	.	16dd\JJ	.
!	!	!	!	!	!	!	!LO:LB:g=original	!
=110-	=110-	=110-	=110-	=110-	=110-	=110-	=110-	=110-
2C/	-	.	2.ryy	.	2.ryy	.	16ee-X\LL	.
.	.	.	.	.	.	.	16dd\	.
.	.	.	.	.	.	.	16cc\	.
.	.	.	.	.	.	.	16b-\JJ	.
.	.	.	.	.	.	.	16ee-X\LL	.
.	.	.	.	.	.	.	16dd\	.
.	.	.	.	.	.	.	16cc\	.
.	.	.	.	.	.	.	16b-\JJ	.
4D/	4	.	.	.	.	.	16a/LL	.
.	.	.	.	.	.	.	16g/	.
.	.	.	.	.	.	.	16a/	.
!	!	!	!	!	!	!	!LO:TX:t=P:problem=kreska pseudotaktowa	!
.	3	.	.	.	.	.	16b-/JJ	.
=111-	=111-	=111-	=111-	=111-	=111-	=111-	=111-	=111-
!LO:TX:t=P:problem=kreska pseudotaktowa	!	!	!	!	!	!	!LO:TX:t=P:problem=mixed beam	!
2.G\	5	.	2.ryy	.	2.ryy	.	8g/L	.
.	.	.	.	.	.	.	16gg\L	.
.	.	.	.	.	.	.	16aany\JJ	.
!	!	!	!	!	!	!	!LO:N:acc=#	!
.	.	.	.	.	.	.	8bbn\L	.
.	.	.	.	.	.	.	16gg\L	.
.	.	.	.	.	.	.	16ff\JJ	.
.	.	.	.	.	.	.	16ee-X\LL	.
.	.	.	.	.	.	.	16ff\	.
.	.	.	.	.	.	.	16dd\	.
!	!	!	!	!	!	!	!LO:TX:t=P:problem=kreska pseudotaktowa	!
.	6	.	.	.	.	.	16ee-\JJ	.
*custos:A	*	*	*	*	*	*	*	*
!LO:LB:g=original	!	!	!	!	!	!	!	!
=112-	=112-	=112-	=112-	=112-	=112-	=112-	=112-	=112-
4A-X\	5	.	2.ryy	.	2.ryy	.	8cc\L	.
.	.	.	.	.	.	.	16ff\L	.
.	.	.	.	.	.	.	16gg\JJ	.
2F\	-6	.	.	.	.	.	8aa-X\L	.
.	.	.	.	.	.	.	16ff\L	.
.	.	.	.	.	.	.	16ee-X\JJ	.
.	.	.	.	.	.	.	16dd\LL	.
.	.	.	.	.	.	.	16ee-X\	.
.	.	.	.	.	.	.	16cc\	.
!	!	!	!	!	!	!	!LO:TX:t=P:problem=kreska pseudotaktowa	!
.	.	.	.	.	.	.	16dd\JJ	.
=113-	=113-	=113-	=113-	=113-	=113-	=113-	=113-	=113-
4G\	.	.	2.ryy	.	2.ryy	.	8b-\L	.
.	.	.	.	.	.	.	16ee-X\L	.
.	.	.	.	.	.	.	16ff\JJ	.
!LO:TX:t=P:problem=kreska pseudotaktowa	!	!	!	!	!	!	!	!
2E-X\	5	.	.	.	.	.	8gg\L	.
.	.	.	.	.	.	.	16ee-X\L	.
.	.	.	.	.	.	.	16dd\JJ	.
.	.	.	.	.	.	.	16cc\LL	.
.	.	.	.	.	.	.	16dd\	.
.	.	.	.	.	.	.	16b-\	.
!	!	!	!	!	!	!	!LO:TX:t=P:problem=kreska pseudotaktowa	!
.	6	.	.	.	.	.	16cc\JJ	.
=114-	=114-	=114-	=114-	=114-	=114-	=114-	=114-	=114-
4F\	.	.	2.ryy	.	2.ryy	.	4a-X/	.
2G\	4	.	.	.	.	.	4.d/	.
.	3	.	.	.	.	.	8c/	.
=115-	=115-	=115-	=115-	=115-	=115-	=115-	=115-	=115-
4c\	.	.	2.ryy	.	2.ryy	.	4c/	.
4B-y\	.	.	.	.	.	.	4r	.
!LO:TX:t=P:problem=kreska pseudotaktowa	!	!	!	!	!	!	!	!
4A-X\	.	.	.	.	.	.	4r	.
=116-	=116-	=116-	=116-	=116-	=116-	=116-	=116-	=116-
!	!	!	!	!	!	!	!LO:N:acc=#	!
2.G\	.	.	2.ryy	.	2.ryy	.	16bn/LL	.
.	.	.	.	.	.	.	16any/	.
.	.	.	.	.	.	.	16b/	.
.	.	.	.	.	.	.	16cc/JJ	.
.	.	.	.	.	.	.	16dd\LL	.
!	!	!	!	!	!	!	!LO:N:acc=#	!
.	.	.	.	.	.	.	16bn\	.
.	.	.	.	.	.	.	16cc\	.
.	.	.	.	.	.	.	16dd\JJ	.
!	!	!	!	!	!	!	!LO:LB:g=original	!
!	!	!	!	!	!	!	!LO:TX:t=P:problem=mixed beam	!
.	.	.	.	.	.	.	16g/LL	.
.	.	.	.	.	.	.	16gg\	.
.	.	.	.	.	.	.	16dd\	.
!	!	!	!	!	!	!	!LO:TX:t=P:problem=kreska pseudotaktowa	!
.	.	.	.	.	.	.	16ff\JJ	.
=117-	=117-	=117-	=117-	=117-	=117-	=117-	=117-	=117-
2C/	-	.	2.ryy	.	2.ryy	.	16ee-X\LL	.
.	.	.	.	.	.	.	16dd\	.
.	.	.	.	.	.	.	16ee-\	.
.	.	.	.	.	.	.	16ff\JJ	.
.	.	.	.	.	.	.	16ee-X\LL	.
.	.	.	.	.	.	.	16ff\	.
.	.	.	.	.	.	.	16dd\	.
.	.	.	.	.	.	.	16ee-X\JJ	.
4F\	.	.	.	.	.	.	16cc\LL	.
.	.	.	.	.	.	.	16ff\	.
.	.	.	.	.	.	.	16ee-X\	.
!	!	!	!	!	!	!	!LO:TX:t=P:problem=kreska pseudotaktowa	!
.	.	.	.	.	.	.	16ff\JJ	.
=118-	=118-	=118-	=118-	=118-	=118-	=118-	=118-	=118-
2.BB-/	.	.	2.ryy	.	2.ryy	.	16dd\LL	.
.	.	.	.	.	.	.	16cc\	.
.	.	.	.	.	.	.	16dd\	.
.	.	.	.	.	.	.	16ee-X\JJ	.
.	.	.	.	.	.	.	16dd\LL	.
.	.	.	.	.	.	.	16ff\	.
.	.	.	.	.	.	.	16gg\	.
.	.	.	.	.	.	.	16aany\JJ	.
!	!	!	!	!	!	!	!LO:TX:t=P:problem=mixed beam	!
.	.	.	.	.	.	.	16bb-y\LL	.
.	.	.	.	.	.	.	16b-y/	.
.	.	.	.	.	.	.	16a/	.
!	!	!	!	!	!	!	!LO:TX:t=P:problem=kreska pseudotaktowa	!
.	.	.	.	.	.	.	16b-/JJ	.
=119-	=119-	=119-	=119-	=119-	=119-	=119-	=119-	=119-
4E-X\	.	.	2.ryy	.	2.ryy	.	16g/LL	.
.	.	.	.	.	.	.	16a/	.
.	.	.	.	.	.	.	16b-/	.
.	.	.	.	.	.	.	16cc/JJ	.
!LO:TX:t=P:problem=kreska pseudotaktowa	!	!	!	!	!	!	!	!
2D/	6\	.	.	.	.	.	16dd\LL	.
.	.	.	.	.	.	.	16ee-X\	.
.	.	.	.	.	.	.	16ff\	.
.	.	.	.	.	.	.	16gg\JJ	.
.	.	.	.	.	.	.	16bn\LL	.
.	.	.	.	.	.	.	16ff\	.
.	.	.	.	.	.	.	16ee-X\	.
!	!	!	!	!	!	!	!LO:TX:t=P:problem=kreska pseudotaktowa	!
.	.	.	.	.	.	.	16dd\JJ	.
=120-	=120-	=120-	=120-	=120-	=120-	=120-	=120-	=120-
2C/	-	.	2.ryy	.	2.ryy	.	16ee-X\LL	.
.	.	.	.	.	.	.	16dd\	.
.	.	.	.	.	.	.	16cc\	.
.	.	.	.	.	.	.	16b-\JJ	.
.	.	.	.	.	.	.	16ee-X\LL	.
.	.	.	.	.	.	.	16dd\	.
.	.	.	.	.	.	.	16cc\	.
.	.	.	.	.	.	.	16b-\JJ	.
4D/	4	.	.	.	.	.	16a/LL	.
.	.	.	.	.	.	.	16g/	.
.	.	.	.	.	.	.	16a/	.
!	!	!	!	!	!	!	!LO:TX:t=P:problem=kreska pseudotaktowa	!
.	3	.	.	.	.	.	16b-/JJ	.
=121-	=121-	=121-	=121-	=121-	=121-	=121-	=121-	=121-
!LO:TX:t=P:problem=kreska pseudotaktowa	!	!	!	!	!	!	!LO:TX:t=P:problem=mixed beam	!
2.G\	5	.	2.ryy	.	2.ryy	.	8g/L	.
.	.	.	.	.	.	.	16gg\L	.
.	.	.	.	.	.	.	16aa\JJ	.
.	.	.	.	.	.	.	8bb-\L	.
.	.	.	.	.	.	.	16gg\L	.
.	.	.	.	.	.	.	16ff\JJ	.
.	.	.	.	.	.	.	16ee-X\LL	.
.	.	.	.	.	.	.	16ff\	.
.	.	.	.	.	.	.	16dd\	.
!	!	!	!	!	!	!	!LO:TX:t=P:problem=kreska pseudotaktowa	!
.	-6	.	.	.	.	.	16ee-X\JJ	.
*	*	*	*	*	*	*	*custos:cc	*
!	!	!	!	!	!	!	!LO:LB:g=original	!
=122-	=122-	=122-	=122-	=122-	=122-	=122-	=122-	=122-
4A-X\	5	.	2.ryy	.	2.ryy	.	8cc\L	.
.	.	.	.	.	.	.	16ff\L	.
.	.	.	.	.	.	.	16gg\JJ	.
2F\	-6	.	.	.	.	.	8aa-X\L	.
.	.	.	.	.	.	.	16ff\L	.
.	.	.	.	.	.	.	16ee-X\JJ	.
.	.	.	.	.	.	.	16dd\LL	.
.	.	.	.	.	.	.	16ee-X\	.
.	.	.	.	.	.	.	16cc\	.
!	!	!	!	!	!	!	!LO:TX:t=P:problem=kreska pseudotaktowa	!
.	.	.	.	.	.	.	16dd\JJ	.
=123-	=123-	=123-	=123-	=123-	=123-	=123-	=123-	=123-
4G\	6	.	2.ryy	.	2.ryy	.	8b-\L	.
.	.	.	.	.	.	.	16ee-X\L	.
.	.	.	.	.	.	.	16ff\JJ	.
!LO:TX:t=P:problem=kreska pseudotaktowa	!	!	!	!	!	!	!	!
2E-X\	5	.	.	.	.	.	8gg\L	.
.	.	.	.	.	.	.	16ff\L	.
.	.	.	.	.	.	.	16ee-X\JJ	.
.	.	.	.	.	.	.	16cc\LL	.
.	.	.	.	.	.	.	16dd\	.
.	.	.	.	.	.	.	16b-\	.
!	!	!	!	!	!	!	!LO:TX:t=P:problem=kreska pseudotaktowa	!
.	6	.	.	.	.	.	16cc\JJ	.
=124-	=124-	=124-	=124-	=124-	=124-	=124-	=124-	=124-
4F\	-	.	2.ryy	.	2.ryy	.	4a-X/	.
2G\	4	.	.	.	.	.	4.d/	.
.	3	.	.	.	.	.	8c/	.
=125-	=125-	=125-	=125-	=125-	=125-	=125-	=125-	=125-
!LO:MO:mod=4C	!	!	!	!	!	!	!	!
2.C/	.	.	2.ryy	.	2.ryy	.	4c/	.
!LO:MO:null:mod=4r	!	!	!	!	!	!	!	!
.	.	.	.	.	.	.	4r	.
!LO:MO:null:mod=4r	!	!	!	!	!	!	!	!
.	.	.	.	.	.	.	4r	.
=126||	=126||	=126||	=126||	=126||	=126||	=126||	=126||	=126||
!!!OMD:
!!!OMD-mod: Allegro
*M3/4	*	*	*M3/4	*	*M3/4	*	*M3/4	*
*	*	*	*	*	*met(3)	*	*met(3)	*
!	!	!	!	!	!LO:TX:b:Bi:t=adagio:mod=	!	!LO:TX:b:Bi:t=Allegro.:mod=	!
4C/	-	.	4C/	.	1.r	.	2.r	.
4G\	.	.	4G\	.	.	.	.	.
4D/	.	.	4D/	.	.	.	.	.
=127-	=127-	=127-	=127-	=127-	=127-	=127-	=127-	=127-
2E-X\	5	.	2E-X\	.	.	.	4g/	.
.	.	.	.	.	.	.	4cc\	.
!	!	!	!	!	!	!	!LO:N:acc=#	!
!LO:TX:t=P:problem=kreska pseudotaktowa	!	!	!LO:TX:t=P:problem=kreska pseudotaktowa	!	!	!	!LO:TX:t=P:problem=kreska pseudotaktowa	!
4D/	6\	.	4D/	.	.	.	4bn/	.
=128-	=128-	=128-	=128-	=128-	=128-	=128-	=128-	=128-
4C/	0	.	4C/	.	4cc\	.	4ee-X\	.
!LO:N:acc=#	!	!	!	!	!	!	!	!
!LO:TX:b:t=P:problem=# below	!	!	!LO:N:acc=#	!	!	!	!	!
2BBn/	6	.	2BBn/	.	4gg\	.	4r	.
.	.	.	.	.	4dd\	.	4r	.
=129-	=129-	=129-	=129-	=129-	=129-	=129-	=129-	=129-
!LO:TX:t=P:problem=kreska pseudotaktowa	!	!	!	!	!	!	!	!
2.C/	5	.	2.C/	.	4.ee-X\	.	4gg\	.
.	.	.	.	.	.	.	4.ccc\	.
!	!	!	!	!	!LO:SIC:s=8dd	!	!	!
.	.	.	.	.	8dd\L	.	.	.
!	!	!	!	!	!LO:SIC:s=8ccL	!	!	!
.	.	.	.	.	8cc\	.	.	.
!	!	!	!	!	!LO:TX:t=P:problem=kreska pseudotaktowa	!	!	!
.	-6	.	.	.	8ee-X\J	.	8aa\	.
=130-	=130-	=130-	=130-	=130-	=130-	=130-	=130-	=130-
2.GG/	.	.	2.GG/	.	4dd\	.	4.bb-X\	.
.	.	.	.	.	2gg\	.	.	.
!	!	!	!	!	!	!	!LO:SIC:s=8aa	!
.	.	.	.	.	.	.	8aa\L	.
!	!	!	!	!	!	!	!LO:SIC:s=8ggL	!
.	.	.	.	.	.	.	8gg\	.
.	.	.	.	.	.	.	8bb-\J	.
*	*	*	*custos:C	*	*	*	*	*
!	!	!	!LO:LB:g=original	!	!	!	!	!
=131-	=131-	=131-	=131-	=131-	=131-	=131-	=131-	=131-
2C/	-5	.	2C/	.	2gg\	.	2aa-X\	.
!LO:TX:t=P:problem=kreska pseudotaktowa	!	!	!	!	!LO:TX:t=P:problem=kreska pseudotaktowa	!	!LO:TX:t=P:problem=kreska pseudotaktowa	!
4D/	6	.	4D/	.	[4ff\	.	4aa-\	.
*custos:E	*	*	*	*	*	*	*	*
!LO:LB:g=original	!	!	!	!	!	!	!	!
=132-	=132-	=132-	=132-	=132-	=132-	=132-	=132-	=132-
2E-X\	9	.	2E-X\	.	4ff\]	.	2.gg\	.
.	8	.	.	.	4ee-X\	.	.	.
!LO:N:acc=#	!	!	!LO:N:acc=#	!	!	!	!	!
4BBn/	6	.	4BBn/	.	4dd\	.	.	.
=133-	=133-	=133-	=133-	=133-	=133-	=133-	=133-	=133-
4C/	-5	.	4C/	.	4ee-X\	.	4aa-X\	.
!	!	!	!LO:SIC:v:s=4.BB	!	!	!	!LO:TX:t=P:problem=kreska pseudotaktowa	!
4.BB/	6	.	4.BB-y/	.	4.dd\	.	[2gg\	.
!	!	!	!LO:SIC:v:s=8C/	!	!	!	!	!
!	!	!	!LO:TX:t=P:problem=kreska pseudotaktowa	!	!	!	!	!
8C/	.	.	8BB-/	.	8ee-\	.	.	.
=134-	=134-	=134-	=134-	=134-	=134-	=134-	=134-	=134-
2.AA-X/	7	.	2AA-X/	.	4cc\	.	4gg\]	.
.	6	.	.	.	4.dd\	.	4.ff\	.
.	.	.	4AA-/	.	.	.	.	.
.	.	.	.	.	8cc\	.	8gg\	.
=135-	=135-	=135-	=135-	=135-	=135-	=135-	=135-	=135-
!	!	!	!	!	!LO:SIC:v:s=4b	!	!	!
4GG/	.	.	4GG/	.	4b-/	.	4gg\	.
4E-X\	6	.	4E-X\	.	4g/	.	4cc\	.
!	!	!	!	!	!	!	!LO:N:acc=#	!
!LO:TX:t=P:problem=kreska pseudotaktowa	!	!	!	!	!LO:TX:t=P:problem=kreska pseudotaktowa	!	!	!
4D/	#6	.	4D/	.	4f/	.	4bn/	.
*	*	*	*	*	*	*	*custos:cc	*
!	!	!	!	!	!	!	!LO:LB:g=original	!
=136-	=136-	=136-	=136-	=136-	=136-	=136-	=136-	=136-
2.C/	-	.	2.C/	.	4.e-X/	.	4.cc\	.
!	!	!	!	!	!	!	!LO:SIC:s=8dd	!
.	.	.	.	.	8f/	.	8dd\L	.
!	!	!	!	!	!	!	!LO:SIC:s=8b-L	!
.	.	.	.	.	4g/	.	8b-y\	.
.	.	.	.	.	.	.	8a\J	.
=137-	=137-	=137-	=137-	=137-	=137-	=137-	=137-	=137-
4D/	4	.	4D/	.	4g/	.	4b-/	.
2DD/	3	.	2DD/	.	4.g/	.	4.a/	.
!	!	!	!	!	!	!	!LO:TX:t=P:problem=kreska pseudotaktowa	!
.	.	.	.	.	8f#X/	.	8b-/	.
=138-	=138-	=138-	=138-	=138-	=138-	=138-	=138-	=138-
2.GG/	#	.	2.GG/	.	2.g/	.	2.g/	.
=139||	=139||	=139||	=139||	=139||	=139||	=139||	=139||	=139||
!LO:MO:mod=*null:null	!	!	!LO:MO:mod=*null:null	!	!	!	!	!
*clefC4	*	*	*clefC4	*	*	*	*	*
4d\	.	.	4d\	.	1.r	.	2.r	.
!	!	!	!LO:TX:t=P:problem=♭ above	!	!	!	!	!
4e-X\	.	.	4e-X\	.	.	.	.	.
4c\	.	.	4c\	.	.	.	.	.
=140-	=140-	=140-	=140-	=140-	=140-	=140-	=140-	=140-
!LO:N:acc=#	!	!	!LO:N:acc=#	!	!	!	!	!
4Bn\	6	.	4Bn\	.	.	.	4gg\	.
!	!	!	!	!	!	!	!LO:TX:t=P:problem=♭ above	!
4c\	6	.	4c\	.	.	.	4aa-X\	.
!LO:TX:t=P:problem=kreska pseudotaktowa	!	!	!	!	!	!	!LO:TX:t=P:problem=kreska pseudotaktowa	!
4d\	.	.	4d\	.	.	.	4ff\	.
=141-	=141-	=141-	=141-	=141-	=141-	=141-	=141-	=141-
4e-X\	6	.	4e-X\	.	4cc\	.	4gg\	.
2d\	7	.	4.d\	.	4dd\	.	4.ff\	.
!	!	!	!	!	!LO:N:acc=#	!	!	!
.	6	.	.	.	4bn/	.	.	.
.	.	.	8d\	.	.	.	8ff\	.
!	!	!	!	!	!LO:LB:g=original	!	!	!
=142-	=142-	=142-	=142-	=142-	=142-	=142-	=142-	=142-
!	!	!	!LO:TX:t=P:problem=kreska pseudotaktowa	!	!	!	!LO:TX:t=P:problem=kreska pseudotaktowa	!
2.c\	5	.	2.c\	.	4g/	.	2.ee-X\	.
.	-6	.	.	.	4a-X/	.	.	.
.	.	.	.	.	8g/L	.	.	.
!	!	!	!	!	!LO:TX:t=P:problem=kreska pseudotaktowa	!	!	!
.	.	.	.	.	8f/J	.	.	.
!LO:MO:mod=*null:null	!	!	!LO:MO:mod=*null:null	!	!	!	!	!
*clefF4	*	*	*clefF4	*	*	*	*	*
=143-	=143-	=143-	=143-	=143-	=143-	=143-	=143-	=143-
!LO:N:acc=#	!	!	!LO:N:acc=#	!	!	!	!	!
4Bn\	6	.	4Bn\	.	2.g/	.	4dd\	.
4c\	-	.	4c\	.	.	.	4ee-X\	.
!	!	!	!	!	!	!	!LO:N:acc=#	!
4G\	#	.	4G\	.	.	.	4bn/	.
=144-	=144-	=144-	=144-	=144-	=144-	=144-	=144-	=144-
!LO:TX:t=P:problem=kreska pseudotaktowa	!	!	!	!	!	!	!LO:TX:t=P:problem=kreska pseudotaktowa	!
2.A-X\	6	.	2.A-X\	.	4f/	.	2.cc\	.
.	.	.	.	.	4g/	.	.	.
!	!	!	!	!	!LO:TX:t=P:problem=kreska pseudotaktowa	!	!	!
.	.	.	.	.	4c/	.	.	.
!	!	!	!LO:LB:g=original	!	!	!	!	!
=145-	=145-	=145-	=145-	=145-	=145-	=145-	=145-	=145-
2G\	6 4	.	2G\	.	4e-X/	.	2cc\	.
.	5 3	.	.	.	2d/	.	.	.
!	!	!	!	!	!	!	!LO:N:acc=#	!
4G\	.	.	4GG/	.	.	.	4bn/	.
=146-	=146-	=146-	=146-	=146-	=146-	=146-	=146-	=146-
4C/	-	.	4C/	.	4e-X/	.	4cc\	.
!LO:TX:t=P:problem=kreska pseudotaktowa	!	!	!	!	!	!	!	!
2BB-/	.	.	4.BB-/	.	4r	.	4dd\	.
!	!	!	!	!	!LO:TX:t=P:problem=kreska pseudotaktowa	!	!LO:TX:t=P:problem=kreska pseudotaktowa	!
.	.	.	.	.	4r	.	4eeny\	.
!	!	!	!LO:TX:t=P:problem=kreska pseudotaktowa	!	!	!	!	!
.	.	.	8BB-/	.	.	.	.	.
=147-	=147-	=147-	=147-	=147-	=147-	=147-	=147-	=147-
4AA/	6	.	4AA/	.	4cc\	.	4ff\	.
4BB-/	6	.	4BB-/	.	4.b-/	.	4gg\	.
4C/	7 3	.	4C/	.	.	.	4ee\	.
.	.	.	.	.	8b-/	.	.	.
*custos:FF	*	*	*	*	*	*	*	*
!LO:LB:g=original	!	!	!	!	!	!	!	!
=148-	=148-	=148-	=148-	=148-	=148-	=148-	=148-	=148-
4FF/	.	.	4FF/	.	4any/	.	4ff\	.
4GG/	.	.	4GG/	.	4b-/	.	4r	.
!LO:TX:t=P:problem=kreska pseudotaktowa	!	!	!LO:TX:t=P:problem=kreska pseudotaktowa	!	!LO:TX:t=P:problem=kreska pseudotaktowa	!	!LO:TX:t=P:problem=kreska pseudotaktowa	!
4AA/	6	.	4AA/	.	4cc\	.	4r	.
=149-	=149-	=149-	=149-	=149-	=149-	=149-	=149-	=149-
4BB-/	.	.	4BB-/	.	4dd\	.	4d/	.
4C/	.	.	4C/	.	4.cc\	.	4e/	.
4D/	.	.	4D/	.	.	.	4f#X/	.
.	.	.	.	.	8cc\	.	.	.
=150-	=150-	=150-	=150-	=150-	=150-	=150-	=150-	=150-
4E-X\	.	.	4E-X\	.	4b-/	.	2g/	.
4C/	.	.	4C/	.	4.a/	.	.	.
!LO:TX:t=P:problem=kreska pseudotaktowa	!	!	!	!	!	!	!LO:TX:t=P:problem=kreska pseudotaktowa	!
4D/	4	.	4D/	.	.	.	4f#X/	.
!	!	!	!	!	!LO:TX:t=P:problem=kreska pseudotaktowa	!	!	!
.	3	.	.	.	8dd\	.	.	.
=151-	=151-	=151-	=151-	=151-	=151-	=151-	=151-	=151-
2GG/	# 5	.	2GG/	.	4dd\	.	4g/	.
.	x 6	.	.	.	4ee-X\	.	4r	.
!	!	!	!	!	!	!	!LO:TX:t=P:problem=kreska pseudotaktowa	!
4AA/	6	.	4AA/	.	4cc\	.	4r	.
*	*	*	*	*	*	*	*custos:gg	*
!	!	!	!	!	!	!	!LO:LB:g=original	!
=152-	=152-	=152-	=152-	=152-	=152-	=152-	=152-	=152-
4BB-/	6	.	4BB-/	.	4dd\	.	4gg\	.
4C/	6	.	4C/	.	4.cc\	.	4aany\	.
!LO:TX:t=P:problem=kreska pseudotaktowa	!	!	!LO:TX:t=P:problem=kreska pseudotaktowa	!	!	!	!	!
4D/	#	.	4D/	.	.	.	4ff#X\	.
!	!	!	!	!	!LO:TX:t=P:problem=kreska pseudotaktowa	!	!	!
.	.	.	.	.	8cc\	.	.	.
=153-	=153-	=153-	=153-	=153-	=153-	=153-	=153-	=153-
4E-X\	.	.	4E-X\	.	4b-/	.	4gg\	.
2AA/	6	.	2AA/	.	2cc\	.	4.ffny\	.
.	.	.	.	.	.	.	8ee-X\	.
*	*	*	*	*	*custos:b	*	*	*
!	!	!	!	!	!LO:LB:g=original	!	!	!
=154-	=154-	=154-	=154-	=154-	=154-	=154-	=154-	=154-
4BB-/	.	.	4BB-/	.	4.b-/	.	4dd\	.
!LO:TX:t=P:problem=kreska pseudotaktowa	!	!	!LO:TX:t=P:problem=kreska pseudotaktowa	!	!	!	!LO:TX:t=P:problem=kreska pseudotaktowa	!
2EE-y/	6 5	.	2EE-/	.	.	.	2cc\	.
.	.	.	.	.	8a/	.	.	.
!	!	!	!	!	!LO:TX:t=P:problem=kreska pseudotaktowa	!	!	!
.	.	.	.	.	4g/	.	.	.
=155-	=155-	=155-	=155-	=155-	=155-	=155-	=155-	=155-
4FF/	.	.	4FF/	.	4a/	.	4cc\	.
4GG/	.	.	4GG/	.	4b-/	.	4r	.
4AA/	.	.	4AA/	.	4cc\	.	4r	.
=156-	=156-	=156-	=156-	=156-	=156-	=156-	=156-	=156-
2BB-/	5	.	2BB-/	.	2dd\	.	4ff\	.
.	.	.	.	.	.	.	4gg\	.
!LO:TX:t=P:problem=kreska pseudotaktowa	!	!	!LO:TX:t=P:problem=kreska pseudotaktowa	!	!LO:TX:t=P:problem=kreska pseudotaktowa	!	!LO:TX:t=P:problem=kreska pseudotaktowa	!
4C/	6	.	4C/	.	4cc\	.	4eeny\	.
=157-	=157-	=157-	=157-	=157-	=157-	=157-	=157-	=157-
4D/	.	.	4D/	.	4b-/	.	4ff\	.
4E-X\	6	.	4E-X\	.	4cc\	.	4.ee-X\	.
4F\	7 3	.	4F\	.	4a/	.	.	.
.	.	.	.	.	.	.	8ee-\	.
=158-	=158-	=158-	=158-	=158-	=158-	=158-	=158-	=158-
4BB-/	.	.	4BB-/	.	4b-/	.	4dd\	.
4C/	-	.	4C/	.	4r	.	4ee-X\	.
!LO:TX:t=P:problem=kreska pseudotaktowa	!	!	!LO:TX:t=P:problem=kreska pseudotaktowa	!	!LO:TX:t=P:problem=kreska pseudotaktowa	!	!LO:TX:t=P:problem=kreska pseudotaktowa	!
4D/	-	.	4D/	.	4r	.	4ff\	.
*	*	*	*custos:E	*	*	*	*	*
!	!	!	!LO:LB:g=original	!	!	!	!	!
=159-	=159-	=159-	=159-	=159-	=159-	=159-	=159-	=159-
!	!	!	!	!	!	!	!LO:SIC:v:s=4gg	!
4E-X\	.	.	4E-X\	.	4g/	.	4gg-X\	.
4F\	#	.	4F\	.	4a/	.	2ff\	.
!	!	!	!	!	!LO:N:acc=#	!	!	!
4G\	#	.	4G\	.	4bn/	.	.	.
=160-	=160-	=160-	=160-	=160-	=160-	=160-	=160-	=160-
4A-X\	.	.	4A-X\	.	2cc\	.	4ee-X\	.
!	!	!	!	!	!	!	!LO:TX:t=P:problem=kreska pseudotaktowa	!
4F\	.	.	4F\	.	.	.	2dd\	.
!	!	!	!	!	!LO:N:acc=#	!	!	!
!LO:TX:t=P:problem=kreska pseudotaktowa	!	!	!LO:TX:t=P:problem=kreska pseudotaktowa	!	!LO:TX:t=P:problem=kreska pseudotaktowa	!	!	!
4G\	#	.	4G\	.	4bn/	.	.	.
*custos:C	*	*	*	*	*	*	*	*
!LO:LB:g=original	!	!	!	!	!	!	!	!
=161-	=161-	=161-	=161-	=161-	=161-	=161-	=161-	=161-
2C/	-5	.	2C/	.	4gg\	.	4ee-X\	.
.	.	.	.	.	4aa-X\	.	4r	.
4D/	6	.	4D/	.	4ff\	.	4r	.
=162-	=162-	=162-	=162-	=162-	=162-	=162-	=162-	=162-
4E-X\	6	.	4E-X\	.	4gg\	.	4cc\	.
!LO:TX:b:t=d:mod=	!	!	!	!	!	!	!	!
!LO:TX:t=P:problem=kreska pseudotaktowa	!	!	!	!	!	!	!	!
2D/	6\	.	4.D/	.	4.ff\	.	4dd\	.
!	!	!	!	!	!	!	!LO:N:acc=#	!
!	!	!	!	!	!	!	!LO:TX:t=P:problem=kreska pseudotaktowa	!
.	.	.	.	.	.	.	4bn/	.
!	!	!	!LO:TX:t=P:problem=kreska pseudotaktowa	!	!	!	!	!
.	.	.	8D/	.	8ff\	.	.	.
=163-	=163-	=163-	=163-	=163-	=163-	=163-	=163-	=163-
!	!	!	!	!	!LO:TX:t=P:problem=♭ above	!	!	!
2.C/	-5	.	2.C/	.	2.ee-X\	.	4g/	.
.	-6	.	.	.	.	.	4a-X/	.
.	.	.	.	.	.	.	8a-/L	.
.	.	.	.	.	.	.	8g/J	.
=164-	=164-	=164-	=164-	=164-	=164-	=164-	=164-	=164-
!LO:N:acc=#	!	!	!LO:N:acc=#	!	!	!	!LO:TX:t=P:problem=kreska pseudotaktowa	!
4BBn/	.	.	4BBn/	.	4dd\	.	2.g/	.
4C/	-	.	4C/	.	4ee-X\	.	.	.
!	!	!	!	!	!LO:N:acc=#	!	!	!
!LO:TX:t=P:problem=kreska pseudotaktowa	!	!	!LO:TX:t=P:problem=kreska pseudotaktowa	!	!LO:TX:t=P:problem=kreska pseudotaktowa	!	!	!
4GG/	#	.	4GG/	.	4bn/	.	.	.
=165-	=165-	=165-	=165-	=165-	=165-	=165-	=165-	=165-
2.AA-X/	6	.	2.AA-X/	.	2.cc\	.	4fny/	.
.	.	.	.	.	.	.	4g/	.
.	.	.	.	.	.	.	4c/	.
!	!	!	!	!	!LO:LB:g=original	!	!	!
=166-	=166-	=166-	=166-	=166-	=166-	=166-	=166-	=166-
2.GG/	6 4	.	2.GG/	.	2cc\	.	4e-X/	.
.	5 3	.	.	.	.	.	2d/	.
!	!	!	!	!	!LO:N:acc=#	!	!	!
.	.	.	.	.	4bn/	.	.	.
=167-	=167-	=167-	=167-	=167-	=167-	=167-	=167-	=167-
2.C/	.	.	2.C/	.	2.cc\	.	2.e-X/	.
==	==	==	==	==	==	==	==	==
*-	*-	*-	*-	*-	*-	*-	*-	*-
!!!system-decoration: [(str)]<klav>
!!!RDF**kern: < = below
!!!filter-modern: shed -k -e "s/[ny]/$1/g, s/-X/-/g" | shed -e "s/^custos:/Xcustos:/I" | shed -e "s/(LO:DY.*):t=(.*$)/$1:T=$2/L; s/LO:DY(.*)(:a:)(.*)/LO:dy:$1$2$3/L; s/LO:DY(.*)(:b:)(.*)/LO:dy:$1$2$3/L; s/LO:DY(.*)(:rj:)(.*)/LO:dy:$1$2$3/L" | shed -e "s/TX(.*):t=P:/tx$1:t=P:/LG" | shed -e "s/LO:N:/LO:n:$1/L" | shed -e "s/^(\d+[\/\\]right)/$1yy/I; s/^(\d+[\/\\]left)/$1yy/I" | shed -k -e "s/([^a-gA-Gn#X-])[<>]/$1/g; s/,//D" | sic -sq | modori -m | autostem -r | tie -s | shed -e "s/-//B"
!!!ENC: Anastazja Marusiak
!!!END: 2022-01-21
!!!EED: Andrzej Kubiczek
!!!EEV: 2022-01-31
!!!ENC-modern: Andrzej Kubiczek
!!!END-modern: 2022-11-08
